(G-CODE GENERATED BY FLATCAM v8.994 - www.flatcam.org - Version Date: 2020/11/7)

(Name: latency_schematic-F_Cu.gbr_iso_combined_cnc)
(Type: G-code from Geometry)
(Units: MM)

(Created on Friday, 24 February 2023 at 19:46)

(Specially modified by mattwach to work with the Sainsmart 3080 that I have.)

(TOOL DIAMETER: 0.39 mm)
(Feedrate_XY: 160.0 mm/min)
(Feedrate_Z: 60.0 mm/min)
(Feedrate rapids 1500.0 mm/min)

(Z_Cut: -0.05 mm)
(Z_Move: 2.0 mm)
(Z Start: None mm)
(Z End: 5.0 mm)
(X,Y End: 0.0000, 0.0000 mm)
(Steps per circle: 64)
(Preprocessor Geometry: default)

(X range:   -0.2325 ...   58.6525  mm)
(Y range:  -27.5375 ...    0.2325  mm)

(Spindle Speed: 10000.0 RPM)
G21
G90
G17
G94


G01 F160.00

M5             
G00 Z15.0000
G00 X0.0000 Y0.0000                
G00 Z15.0000
        
M03 S10000.0
G01 F160.00
G00 X0.0453 Y-0.5679
G01 F60.00
G01 Z-0.0500
G01 F160.00
G01 X0.0438 Y-0.5789 F160.00
G01 X0.0417 Y-0.6011 F160.00
G01 X0.0410 Y-0.6122 F160.00
G01 X0.0405 Y-0.6345 F160.00
G01 X0.0406 Y-26.6816 F160.00
G01 X0.0417 Y-26.7039 F160.00
G01 X0.0426 Y-26.7150 F160.00
G01 X0.0453 Y-26.7371 F160.00
G01 X0.0470 Y-26.7481 F160.00
G01 X0.0512 Y-26.7700 F160.00
G01 X0.0626 Y-26.8223 F160.00
G01 X0.0652 Y-26.8337 F160.00
G01 X0.0713 Y-26.8563 F160.00
G01 X0.0785 Y-26.8785 F160.00
G01 X0.0826 Y-26.8895 F160.00
G01 X0.0869 Y-26.9004 F160.00
G01 X0.0963 Y-26.9218 F160.00
G01 X0.1068 Y-26.9427 F160.00
G01 X0.1183 Y-26.9631 F160.00
G01 X0.1244 Y-26.9730 F160.00
G01 X0.1308 Y-26.9828 F160.00
G01 X0.1442 Y-27.0020 F160.00
G01 X0.1586 Y-27.0204 F160.00
G01 X0.2204 Y-27.0917 F160.00
G01 X0.2365 Y-27.1084 F160.00
G01 X0.2448 Y-27.1165 F160.00
G01 X0.2621 Y-27.1321 F160.00
G01 X0.2801 Y-27.1468 F160.00
G01 X0.2894 Y-27.1537 F160.00
G01 X0.3085 Y-27.1670 F160.00
G01 X0.3282 Y-27.1794 F160.00
G01 X0.3383 Y-27.1851 F160.00
G01 X0.3485 Y-27.1907 F160.00
G01 X0.3693 Y-27.2010 F160.00
G01 X0.3906 Y-27.2103 F160.00
G01 X0.4124 Y-27.2184 F160.00
G01 X0.4234 Y-27.2221 F160.00
G01 X0.5026 Y-27.2455 F160.00
G01 X0.5242 Y-27.2513 F160.00
G01 X0.5459 Y-27.2560 F160.00
G01 X0.5569 Y-27.2580 F160.00
G01 X0.5789 Y-27.2612 F160.00
G01 X0.5900 Y-27.2624 F160.00
G01 X0.6122 Y-27.2640 F160.00
G01 X0.6345 Y-27.2645 F160.00
G01 X57.7855 Y-27.2645 F160.00
G01 X57.8078 Y-27.2640 F160.00
G01 X57.8300 Y-27.2624 F160.00
G01 X57.8521 Y-27.2597 F160.00
G01 X57.8631 Y-27.2580 F160.00
G01 X57.8850 Y-27.2538 F160.00
G01 X57.9373 Y-27.2424 F160.00
G01 X57.9600 Y-27.2369 F160.00
G01 X57.9825 Y-27.2302 F160.00
G01 X57.9935 Y-27.2265 F160.00
G01 X58.0045 Y-27.2224 F160.00
G01 X58.0262 Y-27.2136 F160.00
G01 X58.0368 Y-27.2087 F160.00
G01 X58.0577 Y-27.1982 F160.00
G01 X58.0781 Y-27.1867 F160.00
G01 X58.0880 Y-27.1806 F160.00
G01 X58.1075 Y-27.1676 F160.00
G01 X58.1263 Y-27.1537 F160.00
G01 X58.1354 Y-27.1464 F160.00
G01 X58.2067 Y-27.0846 F160.00
G01 X58.2152 Y-27.0767 F160.00
G01 X58.2315 Y-27.0602 F160.00
G01 X58.2394 Y-27.0516 F160.00
G01 X58.2545 Y-27.0340 F160.00
G01 X58.2618 Y-27.0249 F160.00
G01 X58.2755 Y-27.0061 F160.00
G01 X58.2883 Y-26.9867 F160.00
G01 X58.3001 Y-26.9667 F160.00
G01 X58.3110 Y-26.9462 F160.00
G01 X58.3160 Y-26.9357 F160.00
G01 X58.3208 Y-26.9251 F160.00
G01 X58.3295 Y-26.9035 F160.00
G01 X58.3371 Y-26.8816 F160.00
G01 X58.3605 Y-26.8024 F160.00
G01 X58.3663 Y-26.7808 F160.00
G01 X58.3710 Y-26.7591 F160.00
G01 X58.3747 Y-26.7371 F160.00
G01 X58.3762 Y-26.7261 F160.00
G01 X58.3774 Y-26.7150 F160.00
G01 X58.3790 Y-26.6928 F160.00
G01 X58.3795 Y-26.6705 F160.00
G01 X58.3795 Y-0.6345 F160.00
G01 X58.3790 Y-0.6122 F160.00
G01 X58.3783 Y-0.6011 F160.00
G01 X58.3762 Y-0.5789 F160.00
G01 X58.3730 Y-0.5569 F160.00
G01 X58.3688 Y-0.5350 F160.00
G01 X58.3574 Y-0.4827 F160.00
G01 X58.3519 Y-0.4600 F160.00
G01 X58.3452 Y-0.4375 F160.00
G01 X58.3415 Y-0.4265 F160.00
G01 X58.3331 Y-0.4046 F160.00
G01 X58.3286 Y-0.3938 F160.00
G01 X58.3186 Y-0.3727 F160.00
G01 X58.3132 Y-0.3623 F160.00
G01 X58.3076 Y-0.3520 F160.00
G01 X58.2956 Y-0.3320 F160.00
G01 X58.2826 Y-0.3125 F160.00
G01 X58.2687 Y-0.2937 F160.00
G01 X58.2614 Y-0.2846 F160.00
G01 X58.1996 Y-0.2133 F160.00
G01 X58.1835 Y-0.1966 F160.00
G01 X58.1752 Y-0.1885 F160.00
G01 X58.1579 Y-0.1729 F160.00
G01 X58.1399 Y-0.1582 F160.00
G01 X58.1306 Y-0.1513 F160.00
G01 X58.1115 Y-0.1380 F160.00
G01 X58.1017 Y-0.1317 F160.00
G01 X58.0817 Y-0.1199 F160.00
G01 X58.0612 Y-0.1090 F160.00
G01 X58.0507 Y-0.1040 F160.00
G01 X58.0294 Y-0.0947 F160.00
G01 X58.0185 Y-0.0905 F160.00
G01 X57.9966 Y-0.0829 F160.00
G01 X57.9174 Y-0.0595 F160.00
G01 X57.8958 Y-0.0537 F160.00
G01 X57.8850 Y-0.0512 F160.00
G01 X57.8631 Y-0.0470 F160.00
G01 X57.8411 Y-0.0438 F160.00
G01 X57.8300 Y-0.0426 F160.00
G01 X57.8078 Y-0.0410 F160.00
G01 X57.7855 Y-0.0405 F160.00
G01 X50.7097 Y-0.0405 F160.00
G01 X50.6840 Y-0.0411 F160.00
G01 X50.6609 Y-0.0425 F160.00
G01 X50.6379 Y-0.0451 F160.00
G01 X50.6150 Y-0.0487 F160.00
G01 X50.5924 Y-0.0535 F160.00
G01 X50.5812 Y-0.0563 F160.00
G01 X50.5590 Y-0.0628 F160.00
G01 X50.5480 Y-0.0664 F160.00
G01 X50.4706 Y-0.0951 F160.00
G01 X50.4598 Y-0.0993 F160.00
G01 X50.4384 Y-0.1085 F160.00
G01 X50.4176 Y-0.1188 F160.00
G01 X50.3972 Y-0.1300 F160.00
G01 X50.3775 Y-0.1423 F160.00
G01 X50.3678 Y-0.1488 F160.00
G01 X50.3491 Y-0.1625 F160.00
G01 X50.3399 Y-0.1697 F160.00
G01 X50.3222 Y-0.1847 F160.00
G01 X50.3053 Y-0.2007 F160.00
G01 X50.2892 Y-0.2174 F160.00
G01 X50.2739 Y-0.2349 F160.00
G01 X50.2595 Y-0.2532 F160.00
G01 X50.2170 Y-0.3100 F160.00
G01 X50.2101 Y-0.3194 F160.00
G01 X50.1971 Y-0.3387 F160.00
G01 X50.1910 Y-0.3485 F160.00
G01 X50.1795 Y-0.3687 F160.00
G01 X50.1690 Y-0.3895 F160.00
G01 X50.1595 Y-0.4107 F160.00
G01 X50.1552 Y-0.4215 F160.00
G01 X50.1473 Y-0.4434 F160.00
G01 X50.1406 Y-0.4656 F160.00
G01 X50.1369 Y-0.4799 F160.00
G01 X50.1119 Y-0.4764 F160.00
G01 X50.0890 Y-0.4741 F160.00
G01 X50.0580 Y-0.4725 F160.00
G01 X50.0350 Y-0.4719 F160.00
G01 X5.8500 Y-0.4719 F160.00
G01 X5.8270 Y-0.4725 F160.00
G01 X5.7960 Y-0.4741 F160.00
G01 X5.7731 Y-0.4764 F160.00
G01 X5.7467 Y-0.4802 F160.00
G01 X5.7414 Y-0.4587 F160.00
G01 X5.7347 Y-0.4364 F160.00
G01 X5.7269 Y-0.4145 F160.00
G01 X5.7180 Y-0.3930 F160.00
G01 X5.7081 Y-0.3720 F160.00
G01 X5.7028 Y-0.3617 F160.00
G01 X5.6913 Y-0.3415 F160.00
G01 X5.6789 Y-0.3218 F160.00
G01 X5.6655 Y-0.3029 F160.00
G01 X5.6511 Y-0.2846 F160.00
G01 X5.5894 Y-0.2133 F160.00
G01 X5.5734 Y-0.1966 F160.00
G01 X5.5650 Y-0.1885 F160.00
G01 X5.5477 Y-0.1729 F160.00
G01 X5.5388 Y-0.1655 F160.00
G01 X5.5297 Y-0.1582 F160.00
G01 X5.5110 Y-0.1445 F160.00
G01 X5.5014 Y-0.1380 F160.00
G01 X5.4816 Y-0.1256 F160.00
G01 X5.4613 Y-0.1143 F160.00
G01 X5.4405 Y-0.1040 F160.00
G01 X5.4299 Y-0.0992 F160.00
G01 X5.4084 Y-0.0905 F160.00
G01 X5.3974 Y-0.0866 F160.00
G01 X5.3753 Y-0.0795 F160.00
G01 X5.3072 Y-0.0595 F160.00
G01 X5.2857 Y-0.0537 F160.00
G01 X5.2639 Y-0.0490 F160.00
G01 X5.2529 Y-0.0470 F160.00
G01 X5.2419 Y-0.0453 F160.00
G01 X5.2198 Y-0.0426 F160.00
G01 X5.1976 Y-0.0410 F160.00
G01 X5.1753 Y-0.0405 F160.00
G01 X0.6345 Y-0.0405 F160.00
G01 X0.6122 Y-0.0410 F160.00
G01 X0.6011 Y-0.0417 F160.00
G01 X0.5789 Y-0.0438 F160.00
G01 X0.5569 Y-0.0470 F160.00
G01 X0.5350 Y-0.0512 F160.00
G01 X0.4713 Y-0.0652 F160.00
G01 X0.4487 Y-0.0713 F160.00
G01 X0.4265 Y-0.0785 F160.00
G01 X0.4046 Y-0.0869 F160.00
G01 X0.3938 Y-0.0914 F160.00
G01 X0.3727 Y-0.1014 F160.00
G01 X0.3520 Y-0.1124 F160.00
G01 X0.3320 Y-0.1244 F160.00
G01 X0.3125 Y-0.1374 F160.00
G01 X0.3030 Y-0.1442 F160.00
G01 X0.2846 Y-0.1586 F160.00
G01 X0.2133 Y-0.2204 F160.00
G01 X0.1966 Y-0.2365 F160.00
G01 X0.1806 Y-0.2534 F160.00
G01 X0.1655 Y-0.2710 F160.00
G01 X0.1513 Y-0.2894 F160.00
G01 X0.1380 Y-0.3085 F160.00
G01 X0.1317 Y-0.3183 F160.00
G01 X0.1199 Y-0.3383 F160.00
G01 X0.1090 Y-0.3588 F160.00
G01 X0.1040 Y-0.3693 F160.00
G01 X0.0947 Y-0.3906 F160.00
G01 X0.0866 Y-0.4124 F160.00
G01 X0.0795 Y-0.4345 F160.00
G01 X0.0564 Y-0.5134 F160.00
G01 X0.0537 Y-0.5242 F160.00
G01 X0.0490 Y-0.5459 F160.00
G01 X0.0453 Y-0.5679 F160.00
G00 Z2.0000
G00 X-0.2250 Y-0.5290
G01 F60.00
G01 Z-0.0500
G01 F160.00
G01 X-0.2273 Y-0.5465 F160.00
G01 X-0.2306 Y-0.5816 F160.00
G01 X-0.2317 Y-0.5992 F160.00
G01 X-0.2325 Y-0.6345 F160.00
G01 X-0.2323 Y-26.6881 F160.00
G01 X-0.2317 Y-26.7058 F160.00
G01 X-0.2291 Y-26.7409 F160.00
G01 X-0.2273 Y-26.7585 F160.00
G01 X-0.2222 Y-26.7934 F160.00
G01 X-0.2156 Y-26.8280 F160.00
G01 X-0.2042 Y-26.8803 F160.00
G01 X-0.1954 Y-26.9163 F160.00
G01 X-0.1903 Y-26.9341 F160.00
G01 X-0.1848 Y-26.9518 F160.00
G01 X-0.1725 Y-26.9867 F160.00
G01 X-0.1585 Y-27.0210 F160.00
G01 X-0.1427 Y-27.0545 F160.00
G01 X-0.1342 Y-27.0710 F160.00
G01 X-0.1160 Y-27.1032 F160.00
G01 X-0.1063 Y-27.1190 F160.00
G01 X-0.0962 Y-27.1345 F160.00
G01 X-0.0749 Y-27.1648 F160.00
G01 X-0.0637 Y-27.1795 F160.00
G01 X-0.0401 Y-27.2081 F160.00
G01 X0.0186 Y-27.2755 F160.00
G01 X0.0440 Y-27.3021 F160.00
G01 X0.0708 Y-27.3274 F160.00
G01 X0.0846 Y-27.3395 F160.00
G01 X0.1132 Y-27.3627 F160.00
G01 X0.1428 Y-27.3845 F160.00
G01 X0.1581 Y-27.3948 F160.00
G01 X0.1893 Y-27.4144 F160.00
G01 X0.2052 Y-27.4235 F160.00
G01 X0.2378 Y-27.4407 F160.00
G01 X0.2544 Y-27.4486 F160.00
G01 X0.2881 Y-27.4633 F160.00
G01 X0.3226 Y-27.4762 F160.00
G01 X0.3400 Y-27.4821 F160.00
G01 X0.4257 Y-27.5075 F160.00
G01 X0.4598 Y-27.5166 F160.00
G01 X0.4943 Y-27.5241 F160.00
G01 X0.5290 Y-27.5300 F160.00
G01 X0.5465 Y-27.5323 F160.00
G01 X0.5816 Y-27.5356 F160.00
G01 X0.6169 Y-27.5373 F160.00
G01 X0.6345 Y-27.5375 F160.00
G01 X57.7855 Y-27.5375 F160.00
G01 X57.8208 Y-27.5367 F160.00
G01 X57.8384 Y-27.5356 F160.00
G01 X57.8559 Y-27.5341 F160.00
G01 X57.8910 Y-27.5300 F160.00
G01 X57.9257 Y-27.5241 F160.00
G01 X57.9430 Y-27.5206 F160.00
G01 X57.9953 Y-27.5092 F160.00
G01 X58.0313 Y-27.5004 F160.00
G01 X58.0491 Y-27.4953 F160.00
G01 X58.0844 Y-27.4839 F160.00
G01 X58.1190 Y-27.4707 F160.00
G01 X58.1360 Y-27.4635 F160.00
G01 X58.1529 Y-27.4558 F160.00
G01 X58.1860 Y-27.4392 F160.00
G01 X58.2182 Y-27.4210 F160.00
G01 X58.2340 Y-27.4113 F160.00
G01 X58.2648 Y-27.3908 F160.00
G01 X58.2798 Y-27.3799 F160.00
G01 X58.3089 Y-27.3571 F160.00
G01 X58.3231 Y-27.3451 F160.00
G01 X58.3905 Y-27.2864 F160.00
G01 X58.4171 Y-27.2610 F160.00
G01 X58.4424 Y-27.2342 F160.00
G01 X58.4663 Y-27.2063 F160.00
G01 X58.4777 Y-27.1918 F160.00
G01 X58.4995 Y-27.1622 F160.00
G01 X58.5098 Y-27.1469 F160.00
G01 X58.5198 Y-27.1315 F160.00
G01 X58.5385 Y-27.0998 F160.00
G01 X58.5557 Y-27.0672 F160.00
G01 X58.5636 Y-27.0506 F160.00
G01 X58.5783 Y-27.0169 F160.00
G01 X58.5912 Y-26.9824 F160.00
G01 X58.5971 Y-26.9650 F160.00
G01 X58.6225 Y-26.8793 F160.00
G01 X58.6316 Y-26.8452 F160.00
G01 X58.6391 Y-26.8107 F160.00
G01 X58.6450 Y-26.7760 F160.00
G01 X58.6473 Y-26.7585 F160.00
G01 X58.6491 Y-26.7409 F160.00
G01 X58.6517 Y-26.7058 F160.00
G01 X58.6525 Y-26.6705 F160.00
G01 X58.6523 Y-0.6169 F160.00
G01 X58.6506 Y-0.5816 F160.00
G01 X58.6491 Y-0.5641 F160.00
G01 X58.6473 Y-0.5465 F160.00
G01 X58.6422 Y-0.5116 F160.00
G01 X58.6356 Y-0.4770 F160.00
G01 X58.6242 Y-0.4247 F160.00
G01 X58.6154 Y-0.3887 F160.00
G01 X58.6103 Y-0.3709 F160.00
G01 X58.6048 Y-0.3532 F160.00
G01 X58.5925 Y-0.3183 F160.00
G01 X58.5857 Y-0.3010 F160.00
G01 X58.5708 Y-0.2671 F160.00
G01 X58.5542 Y-0.2340 F160.00
G01 X58.5453 Y-0.2178 F160.00
G01 X58.5263 Y-0.1860 F160.00
G01 X58.5058 Y-0.1552 F160.00
G01 X58.4949 Y-0.1402 F160.00
G01 X58.4837 Y-0.1255 F160.00
G01 X58.4601 Y-0.0969 F160.00
G01 X58.4014 Y-0.0295 F160.00
G01 X58.3760 Y-0.0029 F160.00
G01 X58.3492 Y0.0224 F160.00
G01 X58.3354 Y0.0345 F160.00
G01 X58.3068 Y0.0577 F160.00
G01 X58.2772 Y0.0795 F160.00
G01 X58.2619 Y0.0898 F160.00
G01 X58.2465 Y0.0998 F160.00
G01 X58.2148 Y0.1185 F160.00
G01 X58.1986 Y0.1273 F160.00
G01 X58.1656 Y0.1436 F160.00
G01 X58.1319 Y0.1583 F160.00
G01 X58.1147 Y0.1650 F160.00
G01 X58.0800 Y0.1771 F160.00
G01 X57.9943 Y0.2025 F160.00
G01 X57.9602 Y0.2116 F160.00
G01 X57.9257 Y0.2191 F160.00
G01 X57.8910 Y0.2250 F160.00
G01 X57.8735 Y0.2273 F160.00
G01 X57.8384 Y0.2306 F160.00
G01 X57.8031 Y0.2323 F160.00
G01 X57.7855 Y0.2325 F160.00
G01 X50.7097 Y0.2325 F160.00
G01 X50.6742 Y0.2317 F160.00
G01 X50.6377 Y0.2295 F160.00
G01 X50.6013 Y0.2255 F160.00
G01 X50.5831 Y0.2228 F160.00
G01 X50.5471 Y0.2161 F160.00
G01 X50.5293 Y0.2121 F160.00
G01 X50.5115 Y0.2076 F160.00
G01 X50.4763 Y0.1974 F160.00
G01 X50.4417 Y0.1855 F160.00
G01 X50.3752 Y0.1606 F160.00
G01 X50.3410 Y0.1469 F160.00
G01 X50.3076 Y0.1315 F160.00
G01 X50.2912 Y0.1232 F160.00
G01 X50.2590 Y0.1054 F160.00
G01 X50.2433 Y0.0959 F160.00
G01 X50.2277 Y0.0860 F160.00
G01 X50.1975 Y0.0650 F160.00
G01 X50.1683 Y0.0426 F160.00
G01 X50.1403 Y0.0188 F160.00
G01 X50.1134 Y-0.0064 F160.00
G01 X50.1005 Y-0.0195 F160.00
G01 X50.0756 Y-0.0466 F160.00
G01 X50.0522 Y-0.0750 F160.00
G01 X49.9876 Y-0.1613 F160.00
G01 X49.9771 Y-0.1764 F160.00
G01 X49.9626 Y-0.1989 F160.00
G01 X5.9241 Y-0.1989 F160.00
G01 X5.9058 Y-0.1700 F160.00
G01 X5.8953 Y-0.1548 F160.00
G01 X5.8734 Y-0.1253 F160.00
G01 X5.8500 Y-0.0969 F160.00
G01 X5.8035 Y-0.0433 F160.00
G01 X5.7787 Y-0.0160 F160.00
G01 X5.7658 Y-0.0029 F160.00
G01 X5.7391 Y0.0224 F160.00
G01 X5.7111 Y0.0463 F160.00
G01 X5.6967 Y0.0577 F160.00
G01 X5.6670 Y0.0795 F160.00
G01 X5.6363 Y0.0998 F160.00
G01 X5.6206 Y0.1094 F160.00
G01 X5.5884 Y0.1273 F160.00
G01 X5.5555 Y0.1436 F160.00
G01 X5.5387 Y0.1512 F160.00
G01 X5.5046 Y0.1650 F160.00
G01 X5.4698 Y0.1771 F160.00
G01 X5.3841 Y0.2025 F160.00
G01 X5.3500 Y0.2116 F160.00
G01 X5.3328 Y0.2156 F160.00
G01 X5.3156 Y0.2191 F160.00
G01 X5.2808 Y0.2250 F160.00
G01 X5.2458 Y0.2291 F160.00
G01 X5.2282 Y0.2306 F160.00
G01 X5.2106 Y0.2317 F160.00
G01 X5.1753 Y0.2325 F160.00
G01 X0.6345 Y0.2325 F160.00
G01 X0.5992 Y0.2317 F160.00
G01 X0.5641 Y0.2291 F160.00
G01 X0.5290 Y0.2250 F160.00
G01 X0.4943 Y0.2191 F160.00
G01 X0.4247 Y0.2042 F160.00
G01 X0.3887 Y0.1954 F160.00
G01 X0.3532 Y0.1848 F160.00
G01 X0.3183 Y0.1725 F160.00
G01 X0.3010 Y0.1657 F160.00
G01 X0.2671 Y0.1508 F160.00
G01 X0.2340 Y0.1342 F160.00
G01 X0.2018 Y0.1160 F160.00
G01 X0.1705 Y0.0962 F160.00
G01 X0.1402 Y0.0749 F160.00
G01 X0.1111 Y0.0521 F160.00
G01 X0.0433 Y-0.0064 F160.00
G01 X0.0160 Y-0.0312 F160.00
G01 X-0.0099 Y-0.0573 F160.00
G01 X-0.0345 Y-0.0846 F160.00
G01 X-0.0577 Y-0.1132 F160.00
G01 X-0.0795 Y-0.1428 F160.00
G01 X-0.0998 Y-0.1735 F160.00
G01 X-0.1185 Y-0.2052 F160.00
G01 X-0.1273 Y-0.2214 F160.00
G01 X-0.1436 Y-0.2544 F160.00
G01 X-0.1583 Y-0.2881 F160.00
G01 X-0.1712 Y-0.3226 F160.00
G01 X-0.1771 Y-0.3400 F160.00
G01 X-0.2025 Y-0.4257 F160.00
G01 X-0.2116 Y-0.4598 F160.00
G01 X-0.2191 Y-0.4943 F160.00
G01 X-0.2250 Y-0.5290 F160.00
G00 Z2.0000
G00 X0.3155 Y-0.6067
G01 F60.00
G01 Z-0.0500
G01 F160.00
G01 X0.3140 Y-0.6206 F160.00
G01 X0.3135 Y-0.6345 F160.00
G01 X0.3135 Y-26.6705 F160.00
G01 X0.3140 Y-26.6844 F160.00
G01 X0.3162 Y-26.7028 F160.00
G01 X0.3304 Y-26.7690 F160.00
G01 X0.3344 Y-26.7831 F160.00
G01 X0.3395 Y-26.7968 F160.00
G01 X0.3455 Y-26.8101 F160.00
G01 X0.3525 Y-26.8229 F160.00
G01 X0.3605 Y-26.8352 F160.00
G01 X0.3694 Y-26.8468 F160.00
G01 X0.4190 Y-26.9042 F160.00
G01 X0.4289 Y-26.9148 F160.00
G01 X0.4396 Y-26.9247 F160.00
G01 X0.4549 Y-26.9365 F160.00
G01 X0.4671 Y-26.9444 F160.00
G01 X0.4843 Y-26.9534 F160.00
G01 X0.4932 Y-26.9572 F160.00
G01 X0.5068 Y-26.9622 F160.00
G01 X0.5885 Y-26.9860 F160.00
G01 X0.6022 Y-26.9888 F160.00
G01 X0.6113 Y-26.9901 F160.00
G01 X0.6206 Y-26.9910 F160.00
G01 X0.6345 Y-26.9915 F160.00
G01 X57.7855 Y-26.9915 F160.00
G01 X57.8040 Y-26.9906 F160.00
G01 X57.8178 Y-26.9888 F160.00
G01 X57.8840 Y-26.9746 F160.00
G01 X57.8981 Y-26.9706 F160.00
G01 X57.9118 Y-26.9655 F160.00
G01 X57.9251 Y-26.9595 F160.00
G01 X57.9379 Y-26.9525 F160.00
G01 X57.9502 Y-26.9445 F160.00
G01 X57.9618 Y-26.9356 F160.00
G01 X58.0192 Y-26.8860 F160.00
G01 X58.0298 Y-26.8761 F160.00
G01 X58.0397 Y-26.8654 F160.00
G01 X58.0515 Y-26.8501 F160.00
G01 X58.0594 Y-26.8379 F160.00
G01 X58.0684 Y-26.8207 F160.00
G01 X58.0740 Y-26.8073 F160.00
G01 X58.0772 Y-26.7982 F160.00
G01 X58.1010 Y-26.7165 F160.00
G01 X58.1030 Y-26.7074 F160.00
G01 X58.1051 Y-26.6937 F160.00
G01 X58.1060 Y-26.6844 F160.00
G01 X58.1065 Y-26.6705 F160.00
G01 X58.1065 Y-0.6345 F160.00
G01 X58.1060 Y-0.6206 F160.00
G01 X58.1038 Y-0.6022 F160.00
G01 X58.0896 Y-0.5360 F160.00
G01 X58.0856 Y-0.5219 F160.00
G01 X58.0805 Y-0.5082 F160.00
G01 X58.0745 Y-0.4949 F160.00
G01 X58.0675 Y-0.4821 F160.00
G01 X58.0595 Y-0.4698 F160.00
G01 X58.0506 Y-0.4582 F160.00
G01 X58.0010 Y-0.4008 F160.00
G01 X57.9911 Y-0.3902 F160.00
G01 X57.9804 Y-0.3803 F160.00
G01 X57.9651 Y-0.3685 F160.00
G01 X57.9487 Y-0.3582 F160.00
G01 X57.9357 Y-0.3516 F160.00
G01 X57.9223 Y-0.3460 F160.00
G01 X57.9132 Y-0.3428 F160.00
G01 X57.8315 Y-0.3190 F160.00
G01 X57.8224 Y-0.3170 F160.00
G01 X57.8087 Y-0.3149 F160.00
G01 X57.7948 Y-0.3137 F160.00
G01 X57.7855 Y-0.3135 F160.00
G01 X50.7027 Y-0.3136 F160.00
G01 X50.6841 Y-0.3145 F160.00
G01 X50.6697 Y-0.3163 F160.00
G01 X50.6509 Y-0.3203 F160.00
G01 X50.6371 Y-0.3245 F160.00
G01 X50.5660 Y-0.3509 F160.00
G01 X50.5526 Y-0.3565 F160.00
G01 X50.5439 Y-0.3608 F160.00
G01 X50.5313 Y-0.3680 F160.00
G01 X50.5192 Y-0.3761 F160.00
G01 X50.5116 Y-0.3820 F160.00
G01 X50.4971 Y-0.3949 F160.00
G01 X50.4840 Y-0.4092 F160.00
G01 X50.4355 Y-0.4736 F160.00
G01 X50.4272 Y-0.4856 F160.00
G01 X50.4176 Y-0.5024 F160.00
G01 X50.4098 Y-0.5201 F160.00
G01 X50.4037 Y-0.5384 F160.00
G01 X50.4013 Y-0.5478 F160.00
G01 X50.3987 Y-0.5621 F160.00
G01 X50.3971 Y-0.5766 F160.00
G01 X50.3920 Y-0.6474 F160.00
G01 X50.3915 Y-0.6619 F160.00
G01 X50.3918 Y-0.6716 F160.00
G01 X50.3931 Y-0.6860 F160.00
G01 X50.3946 Y-0.6956 F160.00
G01 X50.3977 Y-0.7098 F160.00
G01 X50.4003 Y-0.7191 F160.00
G01 X50.4051 Y-0.7328 F160.00
G01 X50.4089 Y-0.7417 F160.00
G01 X50.4154 Y-0.7547 F160.00
G01 X50.4541 Y-0.8251 F160.00
G01 X50.4645 Y-0.8405 F160.00
G01 X50.4763 Y-0.8548 F160.00
G01 X52.9087 Y-3.2875 F160.00
G01 X52.9202 Y-3.2981 F160.00
G01 X52.9489 Y-3.3213 F160.00
G01 X52.9607 Y-3.3296 F160.00
G01 X52.9772 Y-3.3393 F160.00
G01 X52.9901 Y-3.3455 F160.00
G01 X53.0035 Y-3.3507 F160.00
G01 X53.0897 Y-3.3760 F160.00
G01 X53.1079 Y-3.3795 F160.00
G01 X53.1264 Y-3.3813 F160.00
G01 X54.1276 Y-3.3815 F160.00
G01 X54.1549 Y-3.3845 F160.00
G01 X54.2421 Y-3.4172 F160.00
G01 X54.3140 Y-3.4710 F160.00
G01 X54.3678 Y-3.5429 F160.00
G01 X54.4005 Y-3.6301 F160.00
G01 X54.4035 Y-3.6574 F160.00
G01 X54.4035 Y-5.2326 F160.00
G01 X54.4005 Y-5.2599 F160.00
G01 X54.3678 Y-5.3471 F160.00
G01 X54.3140 Y-5.4190 F160.00
G01 X54.2421 Y-5.4728 F160.00
G01 X54.1549 Y-5.5055 F160.00
G01 X54.1276 Y-5.5085 F160.00
G01 X52.5524 Y-5.5085 F160.00
G01 X52.5251 Y-5.5055 F160.00
G01 X52.4379 Y-5.4728 F160.00
G01 X52.3660 Y-5.4190 F160.00
G01 X52.3122 Y-5.3471 F160.00
G01 X52.2795 Y-5.2599 F160.00
G01 X52.2765 Y-5.2326 F160.00
G01 X52.2764 Y-5.2038 F160.00
G01 X52.2750 Y-5.1847 F160.00
G01 X52.2712 Y-5.1540 F160.00
G01 X52.2690 Y-5.1401 F160.00
G01 X52.2658 Y-5.1264 F160.00
G01 X52.2616 Y-5.1130 F160.00
G01 X52.2545 Y-5.0957 F160.00
G01 X52.2481 Y-5.0831 F160.00
G01 X52.2098 Y-5.0179 F160.00
G01 X52.1992 Y-5.0017 F160.00
G01 X52.1870 Y-4.9866 F160.00
G01 X52.1769 Y-4.9762 F160.00
G01 X52.1661 Y-4.9665 F160.00
G01 X52.1546 Y-4.9577 F160.00
G01 X52.1424 Y-4.9497 F160.00
G01 X52.1297 Y-4.9427 F160.00
G01 X52.0576 Y-4.9065 F160.00
G01 X52.0395 Y-4.8995 F160.00
G01 X52.0256 Y-4.8955 F160.00
G01 X52.0161 Y-4.8934 F160.00
G01 X51.9970 Y-4.8906 F160.00
G01 X51.9873 Y-4.8899 F160.00
G01 X51.9728 Y-4.8897 F160.00
G01 X51.9583 Y-4.8907 F160.00
G01 X51.8829 Y-4.8986 F160.00
G01 X51.8733 Y-4.9000 F160.00
G01 X51.8591 Y-4.9031 F160.00
G01 X51.8406 Y-4.9089 F160.00
G01 X51.8228 Y-4.9165 F160.00
G01 X51.8058 Y-4.9258 F160.00
G01 X51.7898 Y-4.9367 F160.00
G01 X51.7269 Y-4.9869 F160.00
G01 X51.7166 Y-4.9962 F160.00
G01 X51.7101 Y-5.0029 F160.00
G01 X51.7039 Y-5.0098 F160.00
G01 X51.6953 Y-5.0207 F160.00
G01 X51.6178 Y-5.1312 F160.00
G01 X51.5071 Y-5.2419 F160.00
G01 X51.4946 Y-5.2557 F160.00
G01 X51.4861 Y-5.2667 F160.00
G01 X51.4809 Y-5.2744 F160.00
G01 X51.4520 Y-5.3195 F160.00
G01 X51.4445 Y-5.3320 F160.00
G01 X51.4381 Y-5.3451 F160.00
G01 X51.4343 Y-5.3541 F160.00
G01 X51.4310 Y-5.3633 F160.00
G01 X51.4269 Y-5.3773 F160.00
G01 X51.4239 Y-5.3916 F160.00
G01 X51.4219 Y-5.4061 F160.00
G01 X51.4160 Y-5.4915 F160.00
G01 X51.4162 Y-5.5060 F160.00
G01 X51.4175 Y-5.5204 F160.00
G01 X51.4190 Y-5.5300 F160.00
G01 X51.4221 Y-5.5442 F160.00
G01 X51.4278 Y-5.5627 F160.00
G01 X51.4354 Y-5.5805 F160.00
G01 X51.4738 Y-5.6515 F160.00
G01 X51.4785 Y-5.6595 F160.00
G01 X51.4861 Y-5.6711 F160.00
G01 X51.4946 Y-5.6822 F160.00
G01 X51.5038 Y-5.6926 F160.00
G01 X52.1924 Y-6.3811 F160.00
G01 X52.2002 Y-6.3881 F160.00
G01 X52.2252 Y-6.4083 F160.00
G01 X52.2407 Y-6.4196 F160.00
G01 X52.2488 Y-6.4246 F160.00
G01 X52.2614 Y-6.4315 F160.00
G01 X52.2701 Y-6.4355 F160.00
G01 X52.2835 Y-6.4407 F160.00
G01 X52.3697 Y-6.4660 F160.00
G01 X52.3879 Y-6.4695 F160.00
G01 X52.3971 Y-6.4706 F160.00
G01 X52.4110 Y-6.4714 F160.00
G01 X53.9504 Y-6.4715 F160.00
G01 X53.9688 Y-6.4710 F160.00
G01 X54.0075 Y-6.4687 F160.00
G01 X54.0586 Y-6.4780 F160.00
G01 X54.1082 Y-6.4846 F160.00
G01 X54.1255 Y-6.4895 F160.00
G01 X54.1711 Y-6.5100 F160.00
G01 X54.2237 Y-6.5308 F160.00
G01 X54.2394 Y-6.5397 F160.00
G01 X54.2787 Y-6.5705 F160.00
G01 X54.3211 Y-6.6006 F160.00
G01 X54.3437 Y-6.6264 F160.00
G01 X54.3586 Y-6.6424 F160.00
G01 X56.2257 Y-8.5095 F160.00
G01 X56.2391 Y-8.5222 F160.00
G01 X56.2680 Y-8.5479 F160.00
G01 X56.2977 Y-8.5906 F160.00
G01 X56.3280 Y-8.6303 F160.00
G01 X56.3368 Y-8.6461 F160.00
G01 X56.3570 Y-8.6989 F160.00
G01 X56.3770 Y-8.7447 F160.00
G01 X56.3810 Y-8.7591 F160.00
G01 X56.3818 Y-8.7621 F160.00
G01 X56.3888 Y-8.8181 F160.00
G01 X56.3966 Y-8.8629 F160.00
G01 X56.3942 Y-8.8971 F160.00
G01 X56.3935 Y-8.9189 F160.00
G01 X56.3936 Y-8.9979 F160.00
G01 X56.3949 Y-9.0168 F160.00
G01 X56.3972 Y-9.0308 F160.00
G01 X56.4086 Y-9.0877 F160.00
G01 X56.4140 Y-9.1056 F160.00
G01 X56.4210 Y-9.1229 F160.00
G01 X56.4297 Y-9.1395 F160.00
G01 X56.4346 Y-9.1475 F160.00
G01 X56.4427 Y-9.1589 F160.00
G01 X56.4899 Y-9.2181 F160.00
G01 X56.5022 Y-9.2320 F160.00
G01 X56.5122 Y-9.2417 F160.00
G01 X56.5266 Y-9.2534 F160.00
G01 X56.5985 Y-9.3038 F160.00
G01 X56.7362 Y-9.4415 F160.00
G01 X56.8480 Y-9.6011 F160.00
G01 X56.9303 Y-9.7777 F160.00
G01 X56.9808 Y-9.9659 F160.00
G01 X56.9978 Y-10.1600 F160.00
G01 X56.9808 Y-10.3541 F160.00
G01 X56.9466 Y-10.4816 F160.00
G01 X56.9303 Y-10.5423 F160.00
G01 X56.8480 Y-10.7189 F160.00
G01 X56.7362 Y-10.8785 F160.00
G01 X56.5985 Y-11.0162 F160.00
G01 X56.4389 Y-11.1280 F160.00
G01 X56.2623 Y-11.2103 F160.00
G01 X56.0741 Y-11.2608 F160.00
G01 X55.8800 Y-11.2778 F160.00
G01 X55.6859 Y-11.2608 F160.00
G01 X55.4977 Y-11.2103 F160.00
G01 X55.3211 Y-11.1280 F160.00
G01 X55.1615 Y-11.0162 F160.00
G01 X55.0238 Y-10.8785 F160.00
G01 X54.9120 Y-10.7189 F160.00
G01 X54.8297 Y-10.5423 F160.00
G01 X54.7792 Y-10.3541 F160.00
G01 X54.7622 Y-10.1600 F160.00
G01 X54.7792 Y-9.9659 F160.00
G01 X54.8297 Y-9.7777 F160.00
G01 X54.9120 Y-9.6011 F160.00
G01 X55.0238 Y-9.4415 F160.00
G01 X55.1376 Y-9.3277 F160.00
G01 X55.1470 Y-9.3175 F160.00
G01 X55.1530 Y-9.3104 F160.00
G01 X55.1637 Y-9.2953 F160.00
G01 X55.1953 Y-9.2461 F160.00
G01 X55.2001 Y-9.2376 F160.00
G01 X55.2066 Y-9.2245 F160.00
G01 X55.2121 Y-9.2110 F160.00
G01 X55.2165 Y-9.1970 F160.00
G01 X55.2189 Y-9.1876 F160.00
G01 X55.2215 Y-9.1732 F160.00
G01 X55.2231 Y-9.1587 F160.00
G01 X55.2285 Y-9.0830 F160.00
G01 X55.2284 Y-9.0637 F160.00
G01 X55.2264 Y-9.0444 F160.00
G01 X55.2237 Y-9.0301 F160.00
G01 X55.2184 Y-9.0115 F160.00
G01 X55.2133 Y-8.9979 F160.00
G01 X55.2071 Y-8.9848 F160.00
G01 X55.1685 Y-8.9141 F160.00
G01 X55.1637 Y-8.9062 F160.00
G01 X55.1558 Y-8.8948 F160.00
G01 X55.1500 Y-8.8875 F160.00
G01 X55.1408 Y-8.8771 F160.00
G01 X53.8563 Y-7.5925 F160.00
G01 X53.8448 Y-7.5819 F160.00
G01 X53.8122 Y-7.5558 F160.00
G01 X53.8043 Y-7.5504 F160.00
G01 X53.7921 Y-7.5430 F160.00
G01 X53.7749 Y-7.5345 F160.00
G01 X53.7570 Y-7.5278 F160.00
G01 X53.6798 Y-7.5051 F160.00
G01 X53.6617 Y-7.5012 F160.00
G01 X53.6433 Y-7.4990 F160.00
G01 X53.6293 Y-7.4985 F160.00
G01 X52.0946 Y-7.4985 F160.00
G01 X52.0762 Y-7.4990 F160.00
G01 X52.0375 Y-7.5013 F160.00
G01 X51.9864 Y-7.4920 F160.00
G01 X51.9369 Y-7.4854 F160.00
G01 X51.9195 Y-7.4805 F160.00
G01 X51.8739 Y-7.4600 F160.00
G01 X51.8213 Y-7.4392 F160.00
G01 X51.8056 Y-7.4303 F160.00
G01 X51.7662 Y-7.3995 F160.00
G01 X51.7239 Y-7.3694 F160.00
G01 X51.7014 Y-7.3436 F160.00
G01 X51.6864 Y-7.3276 F160.00
G01 X50.4543 Y-6.0955 F160.00
G01 X50.4409 Y-6.0828 F160.00
G01 X50.4120 Y-6.0571 F160.00
G01 X50.3823 Y-6.0144 F160.00
G01 X50.3520 Y-5.9747 F160.00
G01 X50.3432 Y-5.9589 F160.00
G01 X50.3230 Y-5.9061 F160.00
G01 X50.3030 Y-5.8603 F160.00
G01 X50.2982 Y-5.8429 F160.00
G01 X50.2921 Y-5.7934 F160.00
G01 X50.2834 Y-5.7421 F160.00
G01 X50.2858 Y-5.7079 F160.00
G01 X50.2865 Y-5.6861 F160.00
G01 X50.2865 Y-5.5508 F160.00
G01 X50.2856 Y-5.5319 F160.00
G01 X50.2828 Y-5.5132 F160.00
G01 X50.2734 Y-5.4654 F160.00
G01 X50.2702 Y-5.4518 F160.00
G01 X50.2660 Y-5.4384 F160.00
G01 X50.2627 Y-5.4296 F160.00
G01 X50.2570 Y-5.4168 F160.00
G01 X50.2503 Y-5.4044 F160.00
G01 X50.2428 Y-5.3926 F160.00
G01 X50.2344 Y-5.3813 F160.00
G01 X50.1901 Y-5.3259 F160.00
G01 X50.1778 Y-5.3119 F160.00
G01 X50.1678 Y-5.3023 F160.00
G01 X50.1571 Y-5.2934 F160.00
G01 X50.1138 Y-5.2628 F160.00
G01 X49.9822 Y-5.1312 F160.00
G01 X49.8755 Y-4.9788 F160.00
G01 X49.8209 Y-4.8618 F160.00
G01 X49.8142 Y-4.8487 F160.00
G01 X49.8091 Y-4.8402 F160.00
G01 X49.8037 Y-4.8320 F160.00
G01 X49.7947 Y-4.8203 F160.00
G01 X49.7432 Y-4.7608 F160.00
G01 X49.7296 Y-4.7473 F160.00
G01 X49.7187 Y-4.7381 F160.00
G01 X49.7030 Y-4.7271 F160.00
G01 X49.6864 Y-4.7177 F160.00
G01 X49.6734 Y-4.7118 F160.00
G01 X49.6599 Y-4.7068 F160.00
G01 X49.5874 Y-4.6848 F160.00
G01 X49.5781 Y-4.6823 F160.00
G01 X49.5639 Y-4.6793 F160.00
G01 X49.5495 Y-4.6774 F160.00
G01 X49.5398 Y-4.6767 F160.00
G01 X49.5301 Y-4.6765 F160.00
G01 X49.5156 Y-4.6771 F160.00
G01 X49.5012 Y-4.6788 F160.00
G01 X49.4869 Y-4.6815 F160.00
G01 X49.4093 Y-4.7034 F160.00
G01 X49.3909 Y-4.7096 F160.00
G01 X49.3776 Y-4.7155 F160.00
G01 X49.3607 Y-4.7248 F160.00
G01 X49.3486 Y-4.7328 F160.00
G01 X49.3371 Y-4.7418 F160.00
G01 X49.3264 Y-4.7515 F160.00
G01 X49.3164 Y-4.7621 F160.00
G01 X49.2664 Y-4.8189 F160.00
G01 X49.2606 Y-4.8261 F160.00
G01 X49.2526 Y-4.8375 F160.00
G01 X49.2454 Y-4.8494 F160.00
G01 X49.2411 Y-4.8576 F160.00
G01 X49.1845 Y-4.9788 F160.00
G01 X49.0778 Y-5.1312 F160.00
G01 X48.9462 Y-5.2628 F160.00
G01 X48.7938 Y-5.3695 F160.00
G01 X48.6251 Y-5.4482 F160.00
G01 X48.4454 Y-5.4963 F160.00
G01 X48.2600 Y-5.5126 F160.00
G01 X48.0854 Y-5.4975 F160.00
G01 X48.0658 Y-5.4978 F160.00
G01 X48.0281 Y-5.5002 F160.00
G01 X48.0140 Y-5.5016 F160.00
G01 X48.0000 Y-5.5040 F160.00
G01 X47.9863 Y-5.5075 F160.00
G01 X47.9728 Y-5.5119 F160.00
G01 X47.9597 Y-5.5173 F160.00
G01 X47.9470 Y-5.5237 F160.00
G01 X47.8847 Y-5.5577 F160.00
G01 X47.8727 Y-5.5648 F160.00
G01 X47.8650 Y-5.5700 F160.00
G01 X47.8540 Y-5.5785 F160.00
G01 X47.8403 Y-5.5909 F160.00
G01 X46.7355 Y-6.6957 F160.00
G01 X46.7228 Y-6.7091 F160.00
G01 X46.6971 Y-6.7380 F160.00
G01 X46.6544 Y-6.7676 F160.00
G01 X46.6147 Y-6.7980 F160.00
G01 X46.6017 Y-6.8053 F160.00
G01 X46.5989 Y-6.8068 F160.00
G01 X46.5461 Y-6.8270 F160.00
G01 X46.5003 Y-6.8470 F160.00
G01 X46.4829 Y-6.8518 F160.00
G01 X46.4334 Y-6.8579 F160.00
G01 X46.3821 Y-6.8666 F160.00
G01 X46.3479 Y-6.8642 F160.00
G01 X46.3261 Y-6.8635 F160.00
G01 X44.3469 Y-6.8635 F160.00
G01 X44.3280 Y-6.8644 F160.00
G01 X44.3092 Y-6.8672 F160.00
G01 X44.2569 Y-6.8775 F160.00
G01 X44.2433 Y-6.8811 F160.00
G01 X44.2300 Y-6.8856 F160.00
G01 X44.2171 Y-6.8910 F160.00
G01 X44.2046 Y-6.8974 F160.00
G01 X44.1925 Y-6.9046 F160.00
G01 X44.1774 Y-6.9156 F160.00
G01 X44.1183 Y-6.9628 F160.00
G01 X44.1080 Y-6.9722 F160.00
G01 X44.1015 Y-6.9788 F160.00
G01 X44.0923 Y-6.9893 F160.00
G01 X44.0866 Y-6.9966 F160.00
G01 X44.0362 Y-7.0685 F160.00
G01 X43.8985 Y-7.2062 F160.00
G01 X43.7389 Y-7.3180 F160.00
G01 X43.5623 Y-7.4003 F160.00
G01 X43.3741 Y-7.4508 F160.00
G01 X43.1800 Y-7.4678 F160.00
G01 X42.9859 Y-7.4508 F160.00
G01 X42.7977 Y-7.4003 F160.00
G01 X42.6211 Y-7.3180 F160.00
G01 X42.4615 Y-7.2062 F160.00
G01 X42.3238 Y-7.0685 F160.00
G01 X42.2120 Y-6.9089 F160.00
G01 X42.1297 Y-6.7323 F160.00
G01 X42.0792 Y-6.5441 F160.00
G01 X42.0622 Y-6.3500 F160.00
G01 X42.0792 Y-6.1559 F160.00
G01 X42.1297 Y-5.9677 F160.00
G01 X42.2120 Y-5.7911 F160.00
G01 X42.2972 Y-5.6694 F160.00
G01 X42.3237 Y-5.6315 F160.00
G01 X42.4615 Y-5.4938 F160.00
G01 X42.6211 Y-5.3820 F160.00
G01 X42.7977 Y-5.2997 F160.00
G01 X42.9859 Y-5.2492 F160.00
G01 X43.1800 Y-5.2322 F160.00
G01 X43.3741 Y-5.2492 F160.00
G01 X43.5623 Y-5.2997 F160.00
G01 X43.7389 Y-5.3820 F160.00
G01 X43.8985 Y-5.4938 F160.00
G01 X44.0362 Y-5.6315 F160.00
G01 X44.0839 Y-5.6996 F160.00
G01 X44.0955 Y-5.7146 F160.00
G01 X44.1085 Y-5.7284 F160.00
G01 X44.1470 Y-5.7653 F160.00
G01 X44.1577 Y-5.7744 F160.00
G01 X44.1690 Y-5.7827 F160.00
G01 X44.1809 Y-5.7902 F160.00
G01 X44.1933 Y-5.7968 F160.00
G01 X44.2061 Y-5.8025 F160.00
G01 X44.2238 Y-5.8086 F160.00
G01 X44.2919 Y-5.8286 F160.00
G01 X44.3054 Y-5.8320 F160.00
G01 X44.3237 Y-5.8351 F160.00
G01 X44.3376 Y-5.8363 F160.00
G01 X44.3469 Y-5.8365 F160.00
G01 X46.0093 Y-5.8365 F160.00
G01 X46.0250 Y-5.8359 F160.00
G01 X46.0570 Y-5.8325 F160.00
G01 X46.0759 Y-5.8295 F160.00
G01 X46.0898 Y-5.8261 F160.00
G01 X46.1035 Y-5.8216 F160.00
G01 X46.1211 Y-5.8141 F160.00
G01 X46.1999 Y-5.7711 F160.00
G01 X46.2153 Y-5.7607 F160.00
G01 X46.2296 Y-5.7489 F160.00
G01 X47.1208 Y-4.8576 F160.00
G01 X47.1332 Y-4.8425 F160.00
G01 X47.1611 Y-4.8043 F160.00
G01 X47.1707 Y-4.7880 F160.00
G01 X47.1769 Y-4.7753 F160.00
G01 X47.1806 Y-4.7665 F160.00
G01 X47.1865 Y-4.7486 F160.00
G01 X47.1898 Y-4.7348 F160.00
G01 X47.2046 Y-4.6606 F160.00
G01 X47.2066 Y-4.6469 F160.00
G01 X47.2075 Y-4.6330 F160.00
G01 X47.2076 Y-4.6237 F160.00
G01 X47.2069 Y-4.6098 F160.00
G01 X47.1924 Y-4.4450 F160.00
G01 X47.2075 Y-4.2704 F160.00
G01 X47.2072 Y-4.2508 F160.00
G01 X47.2040 Y-4.2037 F160.00
G01 X47.2019 Y-4.1896 F160.00
G01 X47.1988 Y-4.1758 F160.00
G01 X47.1947 Y-4.1622 F160.00
G01 X47.1896 Y-4.1490 F160.00
G01 X47.1813 Y-4.1320 F160.00
G01 X47.1473 Y-4.0697 F160.00
G01 X47.1402 Y-4.0577 F160.00
G01 X47.1323 Y-4.0463 F160.00
G01 X47.1235 Y-4.0354 F160.00
G01 X47.1141 Y-4.0253 F160.00
G01 X46.2363 Y-3.1475 F160.00
G01 X46.2248 Y-3.1369 F160.00
G01 X46.1922 Y-3.1108 F160.00
G01 X46.1843 Y-3.1054 F160.00
G01 X46.1721 Y-3.0980 F160.00
G01 X46.1549 Y-3.0895 F160.00
G01 X46.1370 Y-3.0828 F160.00
G01 X46.0598 Y-3.0601 F160.00
G01 X46.0462 Y-3.0570 F160.00
G01 X46.0371 Y-3.0555 F160.00
G01 X46.0233 Y-3.0540 F160.00
G01 X46.0140 Y-3.0536 F160.00
G01 X44.3469 Y-3.0535 F160.00
G01 X44.3327 Y-3.0540 F160.00
G01 X44.3139 Y-3.0563 F160.00
G01 X44.2569 Y-3.0675 F160.00
G01 X44.2388 Y-3.0725 F160.00
G01 X44.2213 Y-3.0791 F160.00
G01 X44.2087 Y-3.0851 F160.00
G01 X44.1965 Y-3.0921 F160.00
G01 X44.1848 Y-3.0999 F160.00
G01 X44.1219 Y-3.1499 F160.00
G01 X44.1114 Y-3.1590 F160.00
G01 X44.1047 Y-3.1654 F160.00
G01 X44.0953 Y-3.1757 F160.00
G01 X44.0866 Y-3.1866 F160.00
G01 X44.0362 Y-3.2585 F160.00
G01 X43.8985 Y-3.3962 F160.00
G01 X43.7389 Y-3.5080 F160.00
G01 X43.5623 Y-3.5903 F160.00
G01 X43.3741 Y-3.6408 F160.00
G01 X43.1800 Y-3.6578 F160.00
G01 X42.9859 Y-3.6408 F160.00
G01 X42.7977 Y-3.5903 F160.00
G01 X42.6211 Y-3.5080 F160.00
G01 X42.4615 Y-3.3962 F160.00
G01 X42.3238 Y-3.2585 F160.00
G01 X42.2120 Y-3.0989 F160.00
G01 X42.1297 Y-2.9223 F160.00
G01 X42.0792 Y-2.7341 F160.00
G01 X42.0622 Y-2.5400 F160.00
G01 X42.0792 Y-2.3459 F160.00
G01 X42.1297 Y-2.1577 F160.00
G01 X42.1538 Y-2.1058 F160.00
G01 X42.1590 Y-2.0925 F160.00
G01 X42.1738 Y-2.0436 F160.00
G01 X42.1770 Y-2.0299 F160.00
G01 X42.1786 Y-2.0207 F160.00
G01 X42.1801 Y-2.0067 F160.00
G01 X42.1806 Y-1.9974 F160.00
G01 X42.1806 Y-1.9880 F160.00
G01 X42.1797 Y-1.9740 F160.00
G01 X42.1685 Y-1.8944 F160.00
G01 X42.1659 Y-1.8801 F160.00
G01 X42.1608 Y-1.8614 F160.00
G01 X42.1539 Y-1.8434 F160.00
G01 X42.1452 Y-1.8261 F160.00
G01 X42.1348 Y-1.8097 F160.00
G01 X42.1229 Y-1.7945 F160.00
G01 X42.0764 Y-1.7408 F160.00
G01 X42.0665 Y-1.7302 F160.00
G01 X42.0558 Y-1.7203 F160.00
G01 X42.0444 Y-1.7113 F160.00
G01 X42.0283 Y-1.7006 F160.00
G01 X42.0155 Y-1.6937 F160.00
G01 X42.0022 Y-1.6878 F160.00
G01 X41.9840 Y-1.6814 F160.00
G01 X41.9158 Y-1.6614 F160.00
G01 X41.9024 Y-1.6580 F160.00
G01 X41.8841 Y-1.6549 F160.00
G01 X41.8702 Y-1.6537 F160.00
G01 X41.8609 Y-1.6535 F160.00
G01 X34.3391 Y-1.6535 F160.00
G01 X34.3248 Y-1.6540 F160.00
G01 X34.3153 Y-1.6550 F160.00
G01 X34.2695 Y-1.6617 F160.00
G01 X34.2603 Y-1.6635 F160.00
G01 X34.2467 Y-1.6671 F160.00
G01 X34.2291 Y-1.6733 F160.00
G01 X34.2162 Y-1.6791 F160.00
G01 X34.1999 Y-1.6882 F160.00
G01 X34.1365 Y-1.7295 F160.00
G01 X34.1247 Y-1.7379 F160.00
G01 X34.1099 Y-1.7505 F160.00
G01 X34.0964 Y-1.7644 F160.00
G01 X34.0873 Y-1.7757 F160.00
G01 X34.0764 Y-1.7917 F160.00
G01 X34.0694 Y-1.8044 F160.00
G01 X34.0652 Y-1.8131 F160.00
G01 X34.0362 Y-1.8780 F160.00
G01 X34.0292 Y-1.8960 F160.00
G01 X34.0251 Y-1.9099 F160.00
G01 X34.0214 Y-1.9289 F160.00
G01 X34.0198 Y-1.9434 F160.00
G01 X34.0193 Y-1.9627 F160.00
G01 X34.0198 Y-1.9724 F160.00
G01 X34.0215 Y-1.9868 F160.00
G01 X34.0337 Y-2.0662 F160.00
G01 X34.0382 Y-2.0842 F160.00
G01 X34.0445 Y-2.1017 F160.00
G01 X34.0703 Y-2.1577 F160.00
G01 X34.1208 Y-2.3459 F160.00
G01 X34.1378 Y-2.5400 F160.00
G01 X34.1208 Y-2.7341 F160.00
G01 X34.0703 Y-2.9223 F160.00
G01 X33.9880 Y-3.0989 F160.00
G01 X33.8763 Y-3.2585 F160.00
G01 X33.7385 Y-3.3962 F160.00
G01 X33.5789 Y-3.5080 F160.00
G01 X33.4023 Y-3.5903 F160.00
G01 X33.2141 Y-3.6408 F160.00
G01 X33.0200 Y-3.6578 F160.00
G01 X32.8259 Y-3.6408 F160.00
G01 X32.6377 Y-3.5903 F160.00
G01 X32.4611 Y-3.5080 F160.00
G01 X32.3015 Y-3.3962 F160.00
G01 X32.1638 Y-3.2585 F160.00
G01 X32.1133 Y-3.1865 F160.00
G01 X32.1045 Y-3.1754 F160.00
G01 X32.0948 Y-3.1650 F160.00
G01 X32.0564 Y-3.1279 F160.00
G01 X32.0459 Y-3.1186 F160.00
G01 X32.0348 Y-3.1100 F160.00
G01 X32.0271 Y-3.1047 F160.00
G01 X32.0191 Y-3.0998 F160.00
G01 X32.0067 Y-3.0932 F160.00
G01 X31.9939 Y-3.0875 F160.00
G01 X31.9807 Y-3.0828 F160.00
G01 X31.9081 Y-3.0614 F160.00
G01 X31.8900 Y-3.0570 F160.00
G01 X31.8717 Y-3.0544 F160.00
G01 X31.8531 Y-3.0535 F160.00
G01 X31.6469 Y-3.0535 F160.00
G01 X31.6327 Y-3.0540 F160.00
G01 X31.6232 Y-3.0549 F160.00
G01 X31.6092 Y-3.0572 F160.00
G01 X31.5569 Y-3.0675 F160.00
G01 X31.5433 Y-3.0711 F160.00
G01 X31.5300 Y-3.0756 F160.00
G01 X31.5128 Y-3.0830 F160.00
G01 X31.5005 Y-3.0897 F160.00
G01 X31.4886 Y-3.0972 F160.00
G01 X31.4774 Y-3.1056 F160.00
G01 X31.4219 Y-3.1499 F160.00
G01 X31.4148 Y-3.1559 F160.00
G01 X31.4047 Y-3.1654 F160.00
G01 X31.3953 Y-3.1757 F160.00
G01 X31.3866 Y-3.1866 F160.00
G01 X31.3362 Y-3.2585 F160.00
G01 X31.1985 Y-3.3962 F160.00
G01 X31.0389 Y-3.5080 F160.00
G01 X30.8623 Y-3.5903 F160.00
G01 X30.6741 Y-3.6408 F160.00
G01 X30.4800 Y-3.6578 F160.00
G01 X30.2642 Y-3.6389 F160.00
G01 X30.2446 Y-3.6387 F160.00
G01 X30.2019 Y-3.6413 F160.00
G01 X30.1878 Y-3.6428 F160.00
G01 X30.1739 Y-3.6452 F160.00
G01 X30.1601 Y-3.6486 F160.00
G01 X30.1466 Y-3.6531 F160.00
G01 X30.1335 Y-3.6585 F160.00
G01 X30.1208 Y-3.6648 F160.00
G01 X30.0505 Y-3.7035 F160.00
G01 X30.0389 Y-3.7111 F160.00
G01 X30.0314 Y-3.7167 F160.00
G01 X30.0243 Y-3.7226 F160.00
G01 X30.0141 Y-3.7321 F160.00
G01 X25.1455 Y-8.6007 F160.00
G01 X25.1328 Y-8.6141 F160.00
G01 X25.1071 Y-8.6430 F160.00
G01 X25.0644 Y-8.6726 F160.00
G01 X25.0247 Y-8.7030 F160.00
G01 X25.0089 Y-8.7118 F160.00
G01 X24.9561 Y-8.7320 F160.00
G01 X24.9103 Y-8.7520 F160.00
G01 X24.8929 Y-8.7568 F160.00
G01 X24.8434 Y-8.7629 F160.00
G01 X24.7921 Y-8.7716 F160.00
G01 X24.7579 Y-8.7692 F160.00
G01 X24.7361 Y-8.7685 F160.00
G01 X21.2782 Y-8.7685 F160.00
G01 X21.2574 Y-8.7692 F160.00
G01 X21.2478 Y-8.7700 F160.00
G01 X21.2335 Y-8.7721 F160.00
G01 X21.2194 Y-8.7753 F160.00
G01 X21.2011 Y-8.7811 F160.00
G01 X21.1300 Y-8.8077 F160.00
G01 X21.1124 Y-8.8158 F160.00
G01 X21.0957 Y-8.8256 F160.00
G01 X21.0839 Y-8.8340 F160.00
G01 X21.0764 Y-8.8401 F160.00
G01 X21.0622 Y-8.8533 F160.00
G01 X21.0495 Y-8.8679 F160.00
G01 X21.0012 Y-8.9325 F160.00
G01 X20.9932 Y-8.9447 F160.00
G01 X20.9840 Y-8.9617 F160.00
G01 X20.9783 Y-8.9751 F160.00
G01 X20.9722 Y-8.9934 F160.00
G01 X20.9680 Y-9.0123 F160.00
G01 X20.9660 Y-9.0267 F160.00
G01 X20.9606 Y-9.1024 F160.00
G01 X20.9601 Y-9.1169 F160.00
G01 X20.9607 Y-9.1314 F160.00
G01 X20.9616 Y-9.1410 F160.00
G01 X20.9651 Y-9.1601 F160.00
G01 X20.9688 Y-9.1741 F160.00
G01 X20.9719 Y-9.1833 F160.00
G01 X20.9774 Y-9.1967 F160.00
G01 X20.9817 Y-9.2055 F160.00
G01 X21.0202 Y-9.2761 F160.00
G01 X21.0250 Y-9.2840 F160.00
G01 X21.0330 Y-9.2955 F160.00
G01 X21.0417 Y-9.3063 F160.00
G01 X21.0512 Y-9.3165 F160.00
G01 X21.1762 Y-9.4415 F160.00
G01 X21.2880 Y-9.6011 F160.00
G01 X21.3703 Y-9.7777 F160.00
G01 X21.4208 Y-9.9659 F160.00
G01 X21.4378 Y-10.1600 F160.00
G01 X21.4208 Y-10.3541 F160.00
G01 X21.3866 Y-10.4816 F160.00
G01 X21.3703 Y-10.5423 F160.00
G01 X21.2880 Y-10.7189 F160.00
G01 X21.1762 Y-10.8785 F160.00
G01 X21.0385 Y-11.0162 F160.00
G01 X20.8789 Y-11.1280 F160.00
G01 X20.7023 Y-11.2103 F160.00
G01 X20.5141 Y-11.2608 F160.00
G01 X20.3200 Y-11.2778 F160.00
G01 X20.1259 Y-11.2608 F160.00
G01 X19.9377 Y-11.2103 F160.00
G01 X19.7611 Y-11.1280 F160.00
G01 X19.6015 Y-11.0162 F160.00
G01 X19.4638 Y-10.8785 F160.00
G01 X19.4133 Y-10.8065 F160.00
G01 X19.4045 Y-10.7954 F160.00
G01 X19.3948 Y-10.7850 F160.00
G01 X19.3564 Y-10.7479 F160.00
G01 X19.3459 Y-10.7386 F160.00
G01 X19.3386 Y-10.7327 F160.00
G01 X19.3271 Y-10.7247 F160.00
G01 X19.3191 Y-10.7198 F160.00
G01 X19.3067 Y-10.7132 F160.00
G01 X19.2939 Y-10.7075 F160.00
G01 X19.2807 Y-10.7028 F160.00
G01 X19.2081 Y-10.6814 F160.00
G01 X19.1900 Y-10.6770 F160.00
G01 X19.1717 Y-10.6744 F160.00
G01 X19.1531 Y-10.6735 F160.00
G01 X18.9469 Y-10.6735 F160.00
G01 X18.9327 Y-10.6740 F160.00
G01 X18.9139 Y-10.6763 F160.00
G01 X18.8569 Y-10.6875 F160.00
G01 X18.8433 Y-10.6911 F160.00
G01 X18.8344 Y-10.6940 F160.00
G01 X18.8213 Y-10.6991 F160.00
G01 X18.8046 Y-10.7074 F160.00
G01 X18.7886 Y-10.7172 F160.00
G01 X18.7774 Y-10.7256 F160.00
G01 X18.7183 Y-10.7728 F160.00
G01 X18.7080 Y-10.7822 F160.00
G01 X18.7015 Y-10.7888 F160.00
G01 X18.6953 Y-10.7957 F160.00
G01 X18.6866 Y-10.8066 F160.00
G01 X18.6362 Y-10.8785 F160.00
G01 X18.4985 Y-11.0162 F160.00
G01 X18.3389 Y-11.1280 F160.00
G01 X18.1623 Y-11.2103 F160.00
G01 X17.9741 Y-11.2608 F160.00
G01 X17.9468 Y-11.2632 F160.00
G01 X17.9327 Y-11.2653 F160.00
G01 X17.9188 Y-11.2685 F160.00
G01 X17.8729 Y-11.2806 F160.00
G01 X17.8552 Y-11.2867 F160.00
G01 X17.8424 Y-11.2923 F160.00
G01 X17.8299 Y-11.2989 F160.00
G01 X17.8142 Y-11.3090 F160.00
G01 X17.7995 Y-11.3205 F160.00
G01 X17.7386 Y-11.3736 F160.00
G01 X17.7285 Y-11.3840 F160.00
G01 X17.7192 Y-11.3951 F160.00
G01 X17.7108 Y-11.4070 F160.00
G01 X17.7056 Y-11.4152 F160.00
G01 X17.6966 Y-11.4323 F160.00
G01 X17.6910 Y-11.4457 F160.00
G01 X17.6878 Y-11.4548 F160.00
G01 X17.6651 Y-11.5321 F160.00
G01 X17.6612 Y-11.5502 F160.00
G01 X17.6594 Y-11.5640 F160.00
G01 X17.6585 Y-11.5825 F160.00
G01 X17.6585 Y-20.9923 F160.00
G01 X17.6590 Y-21.0062 F160.00
G01 X17.6605 Y-21.0199 F160.00
G01 X17.6680 Y-21.0654 F160.00
G01 X17.6710 Y-21.0798 F160.00
G01 X17.6750 Y-21.0939 F160.00
G01 X17.6801 Y-21.1076 F160.00
G01 X17.6862 Y-21.1210 F160.00
G01 X17.6932 Y-21.1338 F160.00
G01 X17.7013 Y-21.1461 F160.00
G01 X17.7451 Y-21.2078 F160.00
G01 X17.7538 Y-21.2186 F160.00
G01 X17.7632 Y-21.2288 F160.00
G01 X17.7734 Y-21.2383 F160.00
G01 X17.7806 Y-21.2442 F160.00
G01 X17.9412 Y-21.3711 F160.00
G01 X18.0700 Y-21.5127 F160.00
G01 X18.1502 Y-21.6362 F160.00
G01 X18.1594 Y-21.6479 F160.00
G01 X18.1832 Y-21.6760 F160.00
G01 X18.1965 Y-21.6895 F160.00
G01 X18.2036 Y-21.6958 F160.00
G01 X18.2148 Y-21.7046 F160.00
G01 X18.2226 Y-21.7099 F160.00
G01 X18.2348 Y-21.7172 F160.00
G01 X18.3157 Y-21.7569 F160.00
G01 X18.3339 Y-21.7637 F160.00
G01 X18.3526 Y-21.7686 F160.00
G01 X18.3717 Y-21.7717 F160.00
G01 X18.3910 Y-21.7728 F160.00
G01 X18.4104 Y-21.7720 F160.00
G01 X18.4857 Y-21.7633 F160.00
G01 X18.4953 Y-21.7620 F160.00
G01 X18.5096 Y-21.7591 F160.00
G01 X18.5281 Y-21.7535 F160.00
G01 X18.5416 Y-21.7482 F160.00
G01 X18.5504 Y-21.7441 F160.00
G01 X18.5673 Y-21.7346 F160.00
G01 X18.5831 Y-21.7235 F160.00
G01 X18.6454 Y-21.6725 F160.00
G01 X18.6556 Y-21.6630 F160.00
G01 X18.6651 Y-21.6529 F160.00
G01 X18.6739 Y-21.6420 F160.00
G01 X18.6793 Y-21.6345 F160.00
G01 X18.7777 Y-21.4903 F160.00
G01 X18.9099 Y-21.3519 F160.00
G01 X19.0629 Y-21.2371 F160.00
G01 X19.2326 Y-21.1487 F160.00
G01 X19.4144 Y-21.0893 F160.00
G01 X19.6036 Y-21.0603 F160.00
G01 X19.7949 Y-21.0627 F160.00
G01 X19.9832 Y-21.0962 F160.00
G01 X20.1636 Y-21.1601 F160.00
G01 X20.3311 Y-21.2526 F160.00
G01 X20.4812 Y-21.3711 F160.00
G01 X20.6100 Y-21.5127 F160.00
G01 X20.6902 Y-21.6362 F160.00
G01 X20.6994 Y-21.6479 F160.00
G01 X20.7264 Y-21.6795 F160.00
G01 X20.7365 Y-21.6895 F160.00
G01 X20.7472 Y-21.6988 F160.00
G01 X20.7626 Y-21.7099 F160.00
G01 X20.7789 Y-21.7195 F160.00
G01 X20.8469 Y-21.7529 F160.00
G01 X20.8602 Y-21.7588 F160.00
G01 X20.8739 Y-21.7637 F160.00
G01 X20.8926 Y-21.7686 F160.00
G01 X20.9117 Y-21.7717 F160.00
G01 X20.9310 Y-21.7728 F160.00
G01 X20.9504 Y-21.7720 F160.00
G01 X21.0257 Y-21.7633 F160.00
G01 X21.0353 Y-21.7620 F160.00
G01 X21.0496 Y-21.7591 F160.00
G01 X21.0681 Y-21.7535 F160.00
G01 X21.0860 Y-21.7462 F160.00
G01 X21.0989 Y-21.7395 F160.00
G01 X21.1073 Y-21.7346 F160.00
G01 X21.1231 Y-21.7235 F160.00
G01 X21.1854 Y-21.6725 F160.00
G01 X21.1956 Y-21.6630 F160.00
G01 X21.2051 Y-21.6529 F160.00
G01 X21.2110 Y-21.6457 F160.00
G01 X21.2193 Y-21.6345 F160.00
G01 X21.3177 Y-21.4903 F160.00
G01 X21.4499 Y-21.3519 F160.00
G01 X21.6029 Y-21.2371 F160.00
G01 X21.7726 Y-21.1487 F160.00
G01 X21.9544 Y-21.0893 F160.00
G01 X22.1436 Y-21.0603 F160.00
G01 X22.3349 Y-21.0627 F160.00
G01 X22.5232 Y-21.0962 F160.00
G01 X22.7036 Y-21.1601 F160.00
G01 X22.8711 Y-21.2526 F160.00
G01 X23.0212 Y-21.3711 F160.00
G01 X23.1500 Y-21.5127 F160.00
G01 X23.2305 Y-21.6366 F160.00
G01 X23.2397 Y-21.6484 F160.00
G01 X23.2667 Y-21.6800 F160.00
G01 X23.2768 Y-21.6900 F160.00
G01 X23.2875 Y-21.6993 F160.00
G01 X23.3029 Y-21.7104 F160.00
G01 X23.3192 Y-21.7199 F160.00
G01 X23.3872 Y-21.7533 F160.00
G01 X23.4005 Y-21.7592 F160.00
G01 X23.4142 Y-21.7641 F160.00
G01 X23.4329 Y-21.7691 F160.00
G01 X23.4472 Y-21.7715 F160.00
G01 X23.4665 Y-21.7731 F160.00
G01 X23.4810 Y-21.7731 F160.00
G01 X23.4955 Y-21.7720 F160.00
G01 X23.5708 Y-21.7632 F160.00
G01 X23.5898 Y-21.7595 F160.00
G01 X23.6084 Y-21.7540 F160.00
G01 X23.6263 Y-21.7467 F160.00
G01 X23.6434 Y-21.7376 F160.00
G01 X23.6596 Y-21.7268 F160.00
G01 X23.7257 Y-21.6729 F160.00
G01 X23.7359 Y-21.6635 F160.00
G01 X23.7454 Y-21.6533 F160.00
G01 X23.7513 Y-21.6462 F160.00
G01 X23.7596 Y-21.6350 F160.00
G01 X23.8581 Y-21.4906 F160.00
G01 X23.9902 Y-21.3523 F160.00
G01 X24.1431 Y-21.2375 F160.00
G01 X24.3128 Y-21.1492 F160.00
G01 X24.3160 Y-21.1481 F160.00
G01 X24.3160 Y-21.2825 F160.00
G01 X24.2809 Y-21.2991 F160.00
G01 X24.2682 Y-21.3057 F160.00
G01 X24.1925 Y-21.3510 F160.00
G01 X24.1805 Y-21.3588 F160.00
G01 X24.1021 Y-21.4172 F160.00
G01 X24.0330 Y-21.4795 F160.00
G01 X24.0227 Y-21.4895 F160.00
G01 X23.9572 Y-21.5621 F160.00
G01 X23.8961 Y-21.6444 F160.00
G01 X23.8434 Y-21.7324 F160.00
G01 X23.7995 Y-21.8251 F160.00
G01 X23.7650 Y-21.9217 F160.00
G01 X23.7422 Y-22.0118 F160.00
G01 X23.7384 Y-22.0306 F160.00
G01 X23.7262 Y-22.1131 F160.00
G01 X23.7243 Y-22.1321 F160.00
G01 X23.7200 Y-22.2250 F160.00
G01 X23.7250 Y-22.3274 F160.00
G01 X23.7401 Y-22.4289 F160.00
G01 X23.7624 Y-22.5191 F160.00
G01 X23.7680 Y-22.5374 F160.00
G01 X23.7961 Y-22.6160 F160.00
G01 X23.8034 Y-22.6337 F160.00
G01 X23.8434 Y-22.7176 F160.00
G01 X23.8910 Y-22.7975 F160.00
G01 X23.9016 Y-22.8134 F160.00
G01 X23.9572 Y-22.8879 F160.00
G01 X24.0261 Y-22.9639 F160.00
G01 X24.1021 Y-23.0328 F160.00
G01 X24.1844 Y-23.0939 F160.00
G01 X24.2724 Y-23.1466 F160.00
G01 X24.3651 Y-23.1905 F160.00
G01 X24.4617 Y-23.2250 F160.00
G01 X24.5518 Y-23.2478 F160.00
G01 X24.5706 Y-23.2516 F160.00
G01 X24.6531 Y-23.2638 F160.00
G01 X24.6721 Y-23.2657 F160.00
G01 X24.7650 Y-23.2700 F160.00
G01 X24.8674 Y-23.2650 F160.00
G01 X24.9689 Y-23.2499 F160.00
G01 X25.0591 Y-23.2276 F160.00
G01 X25.0774 Y-23.2220 F160.00
G01 X25.1560 Y-23.1939 F160.00
G01 X25.1737 Y-23.1866 F160.00
G01 X25.2576 Y-23.1466 F160.00
G01 X25.3456 Y-23.0939 F160.00
G01 X25.4279 Y-23.0328 F160.00
G01 X25.4970 Y-22.9705 F160.00
G01 X25.5105 Y-22.9570 F160.00
G01 X25.5665 Y-22.8952 F160.00
G01 X25.5787 Y-22.8804 F160.00
G01 X25.6339 Y-22.8056 F160.00
G01 X25.6866 Y-22.7176 F160.00
G01 X25.7305 Y-22.6249 F160.00
G01 X25.7620 Y-22.5374 F160.00
G01 X25.7676 Y-22.5191 F160.00
G01 X25.7878 Y-22.4382 F160.00
G01 X25.7908 Y-22.4242 F160.00
G01 X25.8050 Y-22.3274 F160.00
G01 X25.8098 Y-22.2346 F160.00
G01 X25.8098 Y-22.2154 F160.00
G01 X25.8050 Y-22.1226 F160.00
G01 X25.7899 Y-22.0211 F160.00
G01 X25.7676 Y-21.9309 F160.00
G01 X25.7620 Y-21.9126 F160.00
G01 X25.7339 Y-21.8340 F160.00
G01 X25.7286 Y-21.8207 F160.00
G01 X25.6866 Y-21.7324 F160.00
G01 X25.6339 Y-21.6444 F160.00
G01 X25.5728 Y-21.5621 F160.00
G01 X25.5073 Y-21.4895 F160.00
G01 X25.4970 Y-21.4795 F160.00
G01 X25.4279 Y-21.4172 F160.00
G01 X25.3495 Y-21.3588 F160.00
G01 X25.3375 Y-21.3510 F160.00
G01 X25.2618 Y-21.3057 F160.00
G01 X25.2491 Y-21.2991 F160.00
G01 X25.2140 Y-21.2825 F160.00
G01 X25.2140 Y-21.1502 F160.00
G01 X25.2434 Y-21.1606 F160.00
G01 X25.4108 Y-21.2530 F160.00
G01 X25.5609 Y-21.3715 F160.00
G01 X25.6896 Y-21.5130 F160.00
G01 X25.7643 Y-21.6284 F160.00
G01 X25.7729 Y-21.6406 F160.00
G01 X25.8061 Y-21.6800 F160.00
G01 X25.8197 Y-21.6932 F160.00
G01 X25.8307 Y-21.7022 F160.00
G01 X25.8423 Y-21.7104 F160.00
G01 X25.8586 Y-21.7199 F160.00
G01 X25.9266 Y-21.7533 F160.00
G01 X25.9444 Y-21.7610 F160.00
G01 X25.9629 Y-21.7668 F160.00
G01 X25.9818 Y-21.7708 F160.00
G01 X25.9962 Y-21.7726 F160.00
G01 X26.0156 Y-21.7732 F160.00
G01 X26.0349 Y-21.7719 F160.00
G01 X26.1054 Y-21.7638 F160.00
G01 X26.1198 Y-21.7616 F160.00
G01 X26.1292 Y-21.7595 F160.00
G01 X26.1478 Y-21.7540 F160.00
G01 X26.1657 Y-21.7466 F160.00
G01 X26.1828 Y-21.7376 F160.00
G01 X26.1990 Y-21.7268 F160.00
G01 X26.2651 Y-21.6729 F160.00
G01 X26.2753 Y-21.6635 F160.00
G01 X26.2848 Y-21.6534 F160.00
G01 X26.2907 Y-21.6462 F160.00
G01 X26.2989 Y-21.6351 F160.00
G01 X26.3977 Y-21.4903 F160.00
G01 X26.5299 Y-21.3519 F160.00
G01 X26.6829 Y-21.2371 F160.00
G01 X26.8526 Y-21.1487 F160.00
G01 X27.0344 Y-21.0893 F160.00
G01 X27.2236 Y-21.0603 F160.00
G01 X27.4149 Y-21.0627 F160.00
G01 X27.6032 Y-21.0962 F160.00
G01 X27.7836 Y-21.1601 F160.00
G01 X27.9511 Y-21.2526 F160.00
G01 X28.1012 Y-21.3711 F160.00
G01 X28.2300 Y-21.5127 F160.00
G01 X28.3102 Y-21.6362 F160.00
G01 X28.3194 Y-21.6479 F160.00
G01 X28.3432 Y-21.6760 F160.00
G01 X28.3530 Y-21.6863 F160.00
G01 X28.3636 Y-21.6958 F160.00
G01 X28.3786 Y-21.7073 F160.00
G01 X28.3948 Y-21.7172 F160.00
G01 X28.4669 Y-21.7529 F160.00
G01 X28.4802 Y-21.7588 F160.00
G01 X28.4985 Y-21.7651 F160.00
G01 X28.5173 Y-21.7695 F160.00
G01 X28.5365 Y-21.7721 F160.00
G01 X28.5559 Y-21.7728 F160.00
G01 X28.5752 Y-21.7715 F160.00
G01 X28.6457 Y-21.7633 F160.00
G01 X28.6553 Y-21.7620 F160.00
G01 X28.6696 Y-21.7591 F160.00
G01 X28.6881 Y-21.7535 F160.00
G01 X28.7060 Y-21.7462 F160.00
G01 X28.7231 Y-21.7371 F160.00
G01 X28.7393 Y-21.7264 F160.00
G01 X28.8054 Y-21.6725 F160.00
G01 X28.8156 Y-21.6630 F160.00
G01 X28.8251 Y-21.6529 F160.00
G01 X28.8339 Y-21.6420 F160.00
G01 X28.8393 Y-21.6345 F160.00
G01 X28.9377 Y-21.4903 F160.00
G01 X29.0699 Y-21.3519 F160.00
G01 X29.2229 Y-21.2371 F160.00
G01 X29.3926 Y-21.1487 F160.00
G01 X29.5744 Y-21.0893 F160.00
G01 X29.7636 Y-21.0603 F160.00
G01 X29.9549 Y-21.0627 F160.00
G01 X30.1432 Y-21.0962 F160.00
G01 X30.3236 Y-21.1601 F160.00
G01 X30.4911 Y-21.2526 F160.00
G01 X30.6412 Y-21.3711 F160.00
G01 X30.7700 Y-21.5127 F160.00
G01 X30.8502 Y-21.6362 F160.00
G01 X30.8594 Y-21.6479 F160.00
G01 X30.8832 Y-21.6760 F160.00
G01 X30.8930 Y-21.6863 F160.00
G01 X30.9036 Y-21.6958 F160.00
G01 X30.9186 Y-21.7073 F160.00
G01 X30.9348 Y-21.7172 F160.00
G01 X31.0069 Y-21.7529 F160.00
G01 X31.0202 Y-21.7588 F160.00
G01 X31.0385 Y-21.7651 F160.00
G01 X31.0573 Y-21.7695 F160.00
G01 X31.0765 Y-21.7721 F160.00
G01 X31.0959 Y-21.7728 F160.00
G01 X31.1152 Y-21.7715 F160.00
G01 X31.1857 Y-21.7633 F160.00
G01 X31.1953 Y-21.7620 F160.00
G01 X31.2096 Y-21.7591 F160.00
G01 X31.2281 Y-21.7535 F160.00
G01 X31.2460 Y-21.7462 F160.00
G01 X31.2631 Y-21.7371 F160.00
G01 X31.2793 Y-21.7264 F160.00
G01 X31.3454 Y-21.6725 F160.00
G01 X31.3556 Y-21.6630 F160.00
G01 X31.3651 Y-21.6529 F160.00
G01 X31.3739 Y-21.6420 F160.00
G01 X31.3793 Y-21.6345 F160.00
G01 X31.4777 Y-21.4903 F160.00
G01 X31.6099 Y-21.3519 F160.00
G01 X31.7629 Y-21.2371 F160.00
G01 X31.9326 Y-21.1487 F160.00
G01 X32.1144 Y-21.0893 F160.00
G01 X32.3036 Y-21.0603 F160.00
G01 X32.4949 Y-21.0627 F160.00
G01 X32.6832 Y-21.0962 F160.00
G01 X32.8636 Y-21.1601 F160.00
G01 X33.0311 Y-21.2526 F160.00
G01 X33.1812 Y-21.3711 F160.00
G01 X33.3100 Y-21.5127 F160.00
G01 X33.3902 Y-21.6362 F160.00
G01 X33.3994 Y-21.6479 F160.00
G01 X33.4232 Y-21.6760 F160.00
G01 X33.4330 Y-21.6863 F160.00
G01 X33.4436 Y-21.6958 F160.00
G01 X33.4586 Y-21.7073 F160.00
G01 X33.4748 Y-21.7172 F160.00
G01 X33.5469 Y-21.7529 F160.00
G01 X33.5602 Y-21.7588 F160.00
G01 X33.5785 Y-21.7651 F160.00
G01 X33.5973 Y-21.7695 F160.00
G01 X33.6165 Y-21.7721 F160.00
G01 X33.6359 Y-21.7728 F160.00
G01 X33.6552 Y-21.7715 F160.00
G01 X33.7257 Y-21.7633 F160.00
G01 X33.7401 Y-21.7611 F160.00
G01 X33.7496 Y-21.7591 F160.00
G01 X33.7681 Y-21.7535 F160.00
G01 X33.7860 Y-21.7462 F160.00
G01 X33.8031 Y-21.7371 F160.00
G01 X33.8193 Y-21.7264 F160.00
G01 X33.8854 Y-21.6725 F160.00
G01 X33.8956 Y-21.6630 F160.00
G01 X33.9051 Y-21.6529 F160.00
G01 X33.9139 Y-21.6420 F160.00
G01 X33.9193 Y-21.6345 F160.00
G01 X34.0177 Y-21.4903 F160.00
G01 X34.1499 Y-21.3519 F160.00
G01 X34.3029 Y-21.2371 F160.00
G01 X34.4726 Y-21.1487 F160.00
G01 X34.6544 Y-21.0893 F160.00
G01 X34.8436 Y-21.0603 F160.00
G01 X35.0349 Y-21.0627 F160.00
G01 X35.2232 Y-21.0962 F160.00
G01 X35.4036 Y-21.1601 F160.00
G01 X35.5711 Y-21.2526 F160.00
G01 X35.7212 Y-21.3711 F160.00
G01 X35.8500 Y-21.5127 F160.00
G01 X35.9302 Y-21.6362 F160.00
G01 X35.9394 Y-21.6479 F160.00
G01 X35.9632 Y-21.6760 F160.00
G01 X35.9730 Y-21.6863 F160.00
G01 X35.9836 Y-21.6958 F160.00
G01 X35.9986 Y-21.7073 F160.00
G01 X36.0148 Y-21.7172 F160.00
G01 X36.0869 Y-21.7529 F160.00
G01 X36.1002 Y-21.7588 F160.00
G01 X36.1185 Y-21.7651 F160.00
G01 X36.1373 Y-21.7695 F160.00
G01 X36.1565 Y-21.7721 F160.00
G01 X36.1759 Y-21.7728 F160.00
G01 X36.1952 Y-21.7715 F160.00
G01 X36.2657 Y-21.7633 F160.00
G01 X36.2801 Y-21.7611 F160.00
G01 X36.2896 Y-21.7591 F160.00
G01 X36.3081 Y-21.7535 F160.00
G01 X36.3260 Y-21.7462 F160.00
G01 X36.3431 Y-21.7371 F160.00
G01 X36.3593 Y-21.7264 F160.00
G01 X36.4254 Y-21.6725 F160.00
G01 X36.4356 Y-21.6630 F160.00
G01 X36.4451 Y-21.6529 F160.00
G01 X36.4510 Y-21.6457 F160.00
G01 X36.4593 Y-21.6345 F160.00
G01 X36.5577 Y-21.4903 F160.00
G01 X36.6899 Y-21.3519 F160.00
G01 X36.8429 Y-21.2371 F160.00
G01 X37.0126 Y-21.1487 F160.00
G01 X37.1944 Y-21.0893 F160.00
G01 X37.3836 Y-21.0603 F160.00
G01 X37.5749 Y-21.0627 F160.00
G01 X37.6869 Y-21.0826 F160.00
G01 X37.7058 Y-21.0851 F160.00
G01 X37.7201 Y-21.0857 F160.00
G01 X37.7737 Y-21.0847 F160.00
G01 X37.7831 Y-21.0843 F160.00
G01 X37.7971 Y-21.0829 F160.00
G01 X37.8109 Y-21.0804 F160.00
G01 X37.8245 Y-21.0770 F160.00
G01 X37.8379 Y-21.0725 F160.00
G01 X37.8509 Y-21.0672 F160.00
G01 X37.8635 Y-21.0609 F160.00
G01 X37.9258 Y-21.0269 F160.00
G01 X37.9416 Y-21.0172 F160.00
G01 X37.9565 Y-21.0061 F160.00
G01 X37.9702 Y-20.9936 F160.00
G01 X42.5725 Y-16.3913 F160.00
G01 X42.5797 Y-16.3837 F160.00
G01 X42.5864 Y-16.3758 F160.00
G01 X42.6063 Y-16.3511 F160.00
G01 X42.6119 Y-16.3433 F160.00
G01 X42.6172 Y-16.3353 F160.00
G01 X42.6243 Y-16.3228 F160.00
G01 X42.6285 Y-16.3143 F160.00
G01 X42.6341 Y-16.3010 F160.00
G01 X42.6386 Y-16.2874 F160.00
G01 X42.6610 Y-16.2103 F160.00
G01 X42.6630 Y-16.2012 F160.00
G01 X42.6651 Y-16.1875 F160.00
G01 X42.6660 Y-16.1783 F160.00
G01 X42.6665 Y-16.1643 F160.00
G01 X42.6665 Y-11.3269 F160.00
G01 X42.6660 Y-11.3127 F160.00
G01 X42.6651 Y-11.3032 F160.00
G01 X42.6628 Y-11.2892 F160.00
G01 X42.6525 Y-11.2369 F160.00
G01 X42.6475 Y-11.2188 F160.00
G01 X42.6409 Y-11.2013 F160.00
G01 X42.6349 Y-11.1887 F160.00
G01 X42.6254 Y-11.1725 F160.00
G01 X42.6173 Y-11.1611 F160.00
G01 X42.5672 Y-11.0983 F160.00
G01 X42.5546 Y-11.0847 F160.00
G01 X42.5443 Y-11.0753 F160.00
G01 X42.5334 Y-11.0666 F160.00
G01 X42.4615 Y-11.0162 F160.00
G01 X42.3238 Y-10.8785 F160.00
G01 X42.2120 Y-10.7189 F160.00
G01 X42.1297 Y-10.5423 F160.00
G01 X42.0792 Y-10.3541 F160.00
G01 X42.0622 Y-10.1600 F160.00
G01 X42.0792 Y-9.9659 F160.00
G01 X42.1297 Y-9.7777 F160.00
G01 X42.2120 Y-9.6011 F160.00
G01 X42.3238 Y-9.4415 F160.00
G01 X42.4615 Y-9.3038 F160.00
G01 X42.6211 Y-9.1920 F160.00
G01 X42.7977 Y-9.1097 F160.00
G01 X42.9859 Y-9.0592 F160.00
G01 X43.1800 Y-9.0422 F160.00
G01 X43.3741 Y-9.0592 F160.00
G01 X43.5623 Y-9.1097 F160.00
G01 X43.7389 Y-9.1920 F160.00
G01 X43.8985 Y-9.3038 F160.00
G01 X44.0362 Y-9.4415 F160.00
G01 X44.0867 Y-9.5135 F160.00
G01 X44.0955 Y-9.5246 F160.00
G01 X44.1019 Y-9.5316 F160.00
G01 X44.1470 Y-9.5753 F160.00
G01 X44.1577 Y-9.5844 F160.00
G01 X44.1690 Y-9.5927 F160.00
G01 X44.1809 Y-9.6002 F160.00
G01 X44.1933 Y-9.6068 F160.00
G01 X44.2061 Y-9.6125 F160.00
G01 X44.2193 Y-9.6172 F160.00
G01 X44.3009 Y-9.6410 F160.00
G01 X44.3191 Y-9.6445 F160.00
G01 X44.3283 Y-9.6456 F160.00
G01 X44.3422 Y-9.6464 F160.00
G01 X44.5531 Y-9.6465 F160.00
G01 X44.5720 Y-9.6456 F160.00
G01 X44.5908 Y-9.6428 F160.00
G01 X44.6385 Y-9.6334 F160.00
G01 X44.6522 Y-9.6302 F160.00
G01 X44.6656 Y-9.6260 F160.00
G01 X44.6744 Y-9.6227 F160.00
G01 X44.6829 Y-9.6190 F160.00
G01 X44.6954 Y-9.6126 F160.00
G01 X44.7114 Y-9.6028 F160.00
G01 X44.7226 Y-9.5944 F160.00
G01 X44.7817 Y-9.5472 F160.00
G01 X44.7953 Y-9.5346 F160.00
G01 X44.8047 Y-9.5243 F160.00
G01 X44.8134 Y-9.5134 F160.00
G01 X44.8638 Y-9.4415 F160.00
G01 X45.0015 Y-9.3038 F160.00
G01 X45.1611 Y-9.1920 F160.00
G01 X45.3377 Y-9.1097 F160.00
G01 X45.5259 Y-9.0592 F160.00
G01 X45.7200 Y-9.0422 F160.00
G01 X45.9141 Y-9.0592 F160.00
G01 X46.1023 Y-9.1097 F160.00
G01 X46.2789 Y-9.1920 F160.00
G01 X46.4385 Y-9.3038 F160.00
G01 X46.5762 Y-9.4415 F160.00
G01 X46.6880 Y-9.6011 F160.00
G01 X46.7703 Y-9.7777 F160.00
G01 X46.8208 Y-9.9659 F160.00
G01 X46.8378 Y-10.1600 F160.00
G01 X46.8208 Y-10.3541 F160.00
G01 X46.7703 Y-10.5423 F160.00
G01 X46.6880 Y-10.7189 F160.00
G01 X46.5762 Y-10.8785 F160.00
G01 X46.4385 Y-11.0162 F160.00
G01 X46.2789 Y-11.1280 F160.00
G01 X46.1023 Y-11.2103 F160.00
G01 X45.9141 Y-11.2608 F160.00
G01 X45.7200 Y-11.2778 F160.00
G01 X45.5259 Y-11.2608 F160.00
G01 X45.3377 Y-11.2103 F160.00
G01 X45.1611 Y-11.1280 F160.00
G01 X45.0015 Y-11.0162 F160.00
G01 X44.8638 Y-10.8785 F160.00
G01 X44.8133 Y-10.8065 F160.00
G01 X44.8045 Y-10.7954 F160.00
G01 X44.7948 Y-10.7850 F160.00
G01 X44.7564 Y-10.7479 F160.00
G01 X44.7459 Y-10.7386 F160.00
G01 X44.7348 Y-10.7300 F160.00
G01 X44.7271 Y-10.7247 F160.00
G01 X44.7191 Y-10.7198 F160.00
G01 X44.7067 Y-10.7132 F160.00
G01 X44.6939 Y-10.7075 F160.00
G01 X44.6807 Y-10.7028 F160.00
G01 X44.6081 Y-10.6814 F160.00
G01 X44.5900 Y-10.6770 F160.00
G01 X44.5717 Y-10.6744 F160.00
G01 X44.5531 Y-10.6735 F160.00
G01 X44.3469 Y-10.6735 F160.00
G01 X44.3327 Y-10.6740 F160.00
G01 X44.3139 Y-10.6763 F160.00
G01 X44.2569 Y-10.6875 F160.00
G01 X44.2433 Y-10.6911 F160.00
G01 X44.2344 Y-10.6940 F160.00
G01 X44.2171 Y-10.7010 F160.00
G01 X44.2005 Y-10.7097 F160.00
G01 X44.1848 Y-10.7199 F160.00
G01 X44.1148 Y-10.7759 F160.00
G01 X44.1015 Y-10.7888 F160.00
G01 X44.0894 Y-10.8029 F160.00
G01 X44.0362 Y-10.8785 F160.00
G01 X43.8985 Y-11.0162 F160.00
G01 X43.8304 Y-11.0639 F160.00
G01 X43.8190 Y-11.0725 F160.00
G01 X43.8050 Y-11.0852 F160.00
G01 X43.7647 Y-11.1270 F160.00
G01 X43.7556 Y-11.1377 F160.00
G01 X43.7500 Y-11.1452 F160.00
G01 X43.7398 Y-11.1609 F160.00
G01 X43.7312 Y-11.1775 F160.00
G01 X43.7275 Y-11.1861 F160.00
G01 X43.7228 Y-11.1993 F160.00
G01 X43.7014 Y-11.2719 F160.00
G01 X43.6980 Y-11.2854 F160.00
G01 X43.6955 Y-11.2991 F160.00
G01 X43.6944 Y-11.3083 F160.00
G01 X43.6935 Y-11.3269 F160.00
G01 X43.6935 Y-16.4853 F160.00
G01 X43.6940 Y-16.5038 F160.00
G01 X43.6963 Y-16.5425 F160.00
G01 X43.6870 Y-16.5936 F160.00
G01 X43.6804 Y-16.6432 F160.00
G01 X43.6764 Y-16.6575 F160.00
G01 X43.6755 Y-16.6605 F160.00
G01 X43.6524 Y-16.7122 F160.00
G01 X43.6342 Y-16.7587 F160.00
G01 X43.6253 Y-16.7744 F160.00
G01 X43.5945 Y-16.8137 F160.00
G01 X43.5644 Y-16.8561 F160.00
G01 X43.5386 Y-16.8787 F160.00
G01 X43.5226 Y-16.8936 F160.00
G01 X39.9014 Y-20.5148 F160.00
G01 X39.8890 Y-20.5279 F160.00
G01 X39.8771 Y-20.5425 F160.00
G01 X39.8691 Y-20.5543 F160.00
G01 X39.8643 Y-20.5624 F160.00
G01 X39.8577 Y-20.5750 F160.00
G01 X39.8275 Y-20.6392 F160.00
G01 X39.8218 Y-20.6526 F160.00
G01 X39.8157 Y-20.6710 F160.00
G01 X39.8124 Y-20.6851 F160.00
G01 X39.8102 Y-20.6995 F160.00
G01 X39.8089 Y-20.7188 F160.00
G01 X39.8095 Y-20.7381 F160.00
G01 X39.8213 Y-20.8277 F160.00
G01 X39.8257 Y-20.8466 F160.00
G01 X39.8302 Y-20.8604 F160.00
G01 X39.8357 Y-20.8738 F160.00
G01 X39.8423 Y-20.8868 F160.00
G01 X39.8524 Y-20.9033 F160.00
G01 X39.8611 Y-20.9149 F160.00
G01 X39.9100 Y-20.9729 F160.00
G01 X39.9196 Y-20.9834 F160.00
G01 X39.9300 Y-20.9933 F160.00
G01 X39.9448 Y-21.0051 F160.00
G01 X39.9608 Y-21.0155 F160.00
G01 X39.9777 Y-21.0242 F160.00
G01 X39.9909 Y-21.0297 F160.00
G01 X39.9998 Y-21.0328 F160.00
G01 X40.0639 Y-21.0532 F160.00
G01 X40.0813 Y-21.0579 F160.00
G01 X40.0947 Y-21.0603 F160.00
G01 X40.1127 Y-21.0623 F160.00
G01 X40.3032 Y-21.0962 F160.00
G01 X40.4836 Y-21.1601 F160.00
G01 X40.6511 Y-21.2526 F160.00
G01 X40.8012 Y-21.3711 F160.00
G01 X40.9300 Y-21.5127 F160.00
G01 X41.0102 Y-21.6362 F160.00
G01 X41.0194 Y-21.6479 F160.00
G01 X41.0432 Y-21.6760 F160.00
G01 X41.0530 Y-21.6863 F160.00
G01 X41.0600 Y-21.6927 F160.00
G01 X41.0748 Y-21.7046 F160.00
G01 X41.0866 Y-21.7125 F160.00
G01 X41.0948 Y-21.7172 F160.00
G01 X41.1757 Y-21.7569 F160.00
G01 X41.1939 Y-21.7637 F160.00
G01 X41.2126 Y-21.7686 F160.00
G01 X41.2317 Y-21.7717 F160.00
G01 X41.2510 Y-21.7728 F160.00
G01 X41.2704 Y-21.7720 F160.00
G01 X41.3457 Y-21.7633 F160.00
G01 X41.3601 Y-21.7611 F160.00
G01 X41.3696 Y-21.7591 F160.00
G01 X41.3789 Y-21.7565 F160.00
G01 X41.3927 Y-21.7519 F160.00
G01 X41.4104 Y-21.7441 F160.00
G01 X41.4273 Y-21.7346 F160.00
G01 X41.4431 Y-21.7235 F160.00
G01 X41.5054 Y-21.6725 F160.00
G01 X41.5156 Y-21.6630 F160.00
G01 X41.5251 Y-21.6529 F160.00
G01 X41.5310 Y-21.6457 F160.00
G01 X41.5393 Y-21.6345 F160.00
G01 X41.6377 Y-21.4903 F160.00
G01 X41.7699 Y-21.3519 F160.00
G01 X41.9229 Y-21.2371 F160.00
G01 X42.0926 Y-21.1487 F160.00
G01 X42.2744 Y-21.0893 F160.00
G01 X42.4636 Y-21.0603 F160.00
G01 X42.6549 Y-21.0627 F160.00
G01 X42.8432 Y-21.0962 F160.00
G01 X43.0236 Y-21.1601 F160.00
G01 X43.1911 Y-21.2526 F160.00
G01 X43.3412 Y-21.3711 F160.00
G01 X43.4700 Y-21.5127 F160.00
G01 X43.5502 Y-21.6362 F160.00
G01 X43.5594 Y-21.6479 F160.00
G01 X43.5864 Y-21.6795 F160.00
G01 X43.5965 Y-21.6895 F160.00
G01 X43.6072 Y-21.6988 F160.00
G01 X43.6226 Y-21.7099 F160.00
G01 X43.6389 Y-21.7195 F160.00
G01 X43.7069 Y-21.7529 F160.00
G01 X43.7202 Y-21.7588 F160.00
G01 X43.7385 Y-21.7651 F160.00
G01 X43.7526 Y-21.7686 F160.00
G01 X43.7717 Y-21.7717 F160.00
G01 X43.7910 Y-21.7728 F160.00
G01 X43.8104 Y-21.7720 F160.00
G01 X43.8857 Y-21.7633 F160.00
G01 X43.9001 Y-21.7611 F160.00
G01 X43.9096 Y-21.7591 F160.00
G01 X43.9189 Y-21.7565 F160.00
G01 X43.9327 Y-21.7519 F160.00
G01 X43.9504 Y-21.7441 F160.00
G01 X43.9673 Y-21.7346 F160.00
G01 X43.9831 Y-21.7235 F160.00
G01 X44.0454 Y-21.6725 F160.00
G01 X44.0556 Y-21.6630 F160.00
G01 X44.0651 Y-21.6529 F160.00
G01 X44.0710 Y-21.6457 F160.00
G01 X44.0793 Y-21.6345 F160.00
G01 X44.1777 Y-21.4903 F160.00
G01 X44.3099 Y-21.3519 F160.00
G01 X44.4629 Y-21.2371 F160.00
G01 X44.6326 Y-21.1487 F160.00
G01 X44.8144 Y-21.0893 F160.00
G01 X45.0036 Y-21.0603 F160.00
G01 X45.1949 Y-21.0627 F160.00
G01 X45.3832 Y-21.0962 F160.00
G01 X45.5636 Y-21.1601 F160.00
G01 X45.7311 Y-21.2526 F160.00
G01 X45.8812 Y-21.3711 F160.00
G01 X46.0100 Y-21.5127 F160.00
G01 X46.0902 Y-21.6362 F160.00
G01 X46.0994 Y-21.6479 F160.00
G01 X46.1264 Y-21.6795 F160.00
G01 X46.1365 Y-21.6895 F160.00
G01 X46.1472 Y-21.6988 F160.00
G01 X46.1626 Y-21.7099 F160.00
G01 X46.1789 Y-21.7195 F160.00
G01 X46.2469 Y-21.7529 F160.00
G01 X46.2602 Y-21.7588 F160.00
G01 X46.2785 Y-21.7651 F160.00
G01 X46.2926 Y-21.7686 F160.00
G01 X46.3117 Y-21.7717 F160.00
G01 X46.3310 Y-21.7728 F160.00
G01 X46.3504 Y-21.7720 F160.00
G01 X46.4257 Y-21.7633 F160.00
G01 X46.4401 Y-21.7611 F160.00
G01 X46.4496 Y-21.7591 F160.00
G01 X46.4589 Y-21.7565 F160.00
G01 X46.4727 Y-21.7519 F160.00
G01 X46.4904 Y-21.7441 F160.00
G01 X46.5073 Y-21.7346 F160.00
G01 X46.5231 Y-21.7235 F160.00
G01 X46.5854 Y-21.6725 F160.00
G01 X46.5956 Y-21.6630 F160.00
G01 X46.6051 Y-21.6529 F160.00
G01 X46.6139 Y-21.6420 F160.00
G01 X46.6193 Y-21.6345 F160.00
G01 X46.7177 Y-21.4903 F160.00
G01 X46.8499 Y-21.3519 F160.00
G01 X47.0029 Y-21.2371 F160.00
G01 X47.1726 Y-21.1487 F160.00
G01 X47.3544 Y-21.0893 F160.00
G01 X47.5436 Y-21.0603 F160.00
G01 X47.7349 Y-21.0627 F160.00
G01 X47.9232 Y-21.0962 F160.00
G01 X48.1036 Y-21.1601 F160.00
G01 X48.2711 Y-21.2526 F160.00
G01 X48.4212 Y-21.3711 F160.00
G01 X48.5500 Y-21.5127 F160.00
G01 X48.6302 Y-21.6362 F160.00
G01 X48.6394 Y-21.6479 F160.00
G01 X48.6664 Y-21.6795 F160.00
G01 X48.6765 Y-21.6895 F160.00
G01 X48.6872 Y-21.6988 F160.00
G01 X48.7026 Y-21.7099 F160.00
G01 X48.7189 Y-21.7195 F160.00
G01 X48.7869 Y-21.7529 F160.00
G01 X48.8002 Y-21.7588 F160.00
G01 X48.8185 Y-21.7651 F160.00
G01 X48.8326 Y-21.7686 F160.00
G01 X48.8517 Y-21.7717 F160.00
G01 X48.8710 Y-21.7728 F160.00
G01 X48.8904 Y-21.7720 F160.00
G01 X48.9657 Y-21.7633 F160.00
G01 X48.9801 Y-21.7611 F160.00
G01 X48.9896 Y-21.7591 F160.00
G01 X48.9989 Y-21.7565 F160.00
G01 X49.0127 Y-21.7519 F160.00
G01 X49.0304 Y-21.7441 F160.00
G01 X49.0473 Y-21.7346 F160.00
G01 X49.0631 Y-21.7235 F160.00
G01 X49.1254 Y-21.6725 F160.00
G01 X49.1356 Y-21.6630 F160.00
G01 X49.1451 Y-21.6529 F160.00
G01 X49.1539 Y-21.6420 F160.00
G01 X49.1593 Y-21.6345 F160.00
G01 X49.2577 Y-21.4903 F160.00
G01 X49.3899 Y-21.3519 F160.00
G01 X49.5429 Y-21.2371 F160.00
G01 X49.7126 Y-21.1487 F160.00
G01 X49.8944 Y-21.0893 F160.00
G01 X50.0836 Y-21.0603 F160.00
G01 X50.2749 Y-21.0627 F160.00
G01 X50.4632 Y-21.0962 F160.00
G01 X50.6436 Y-21.1601 F160.00
G01 X50.8111 Y-21.2526 F160.00
G01 X50.9612 Y-21.3711 F160.00
G01 X51.0900 Y-21.5127 F160.00
G01 X51.1702 Y-21.6362 F160.00
G01 X51.1794 Y-21.6479 F160.00
G01 X51.2064 Y-21.6795 F160.00
G01 X51.2165 Y-21.6895 F160.00
G01 X51.2272 Y-21.6988 F160.00
G01 X51.2426 Y-21.7099 F160.00
G01 X51.2589 Y-21.7195 F160.00
G01 X51.3269 Y-21.7529 F160.00
G01 X51.3402 Y-21.7588 F160.00
G01 X51.3585 Y-21.7651 F160.00
G01 X51.3726 Y-21.7686 F160.00
G01 X51.3917 Y-21.7717 F160.00
G01 X51.4110 Y-21.7728 F160.00
G01 X51.4304 Y-21.7720 F160.00
G01 X51.5057 Y-21.7633 F160.00
G01 X51.5201 Y-21.7611 F160.00
G01 X51.5296 Y-21.7591 F160.00
G01 X51.5481 Y-21.7535 F160.00
G01 X51.5616 Y-21.7482 F160.00
G01 X51.5704 Y-21.7441 F160.00
G01 X51.5873 Y-21.7346 F160.00
G01 X51.6031 Y-21.7235 F160.00
G01 X51.6654 Y-21.6725 F160.00
G01 X51.6756 Y-21.6630 F160.00
G01 X51.6851 Y-21.6529 F160.00
G01 X51.6939 Y-21.6420 F160.00
G01 X51.6993 Y-21.6345 F160.00
G01 X51.7977 Y-21.4903 F160.00
G01 X51.9299 Y-21.3519 F160.00
G01 X52.0829 Y-21.2371 F160.00
G01 X52.2526 Y-21.1487 F160.00
G01 X52.4344 Y-21.0893 F160.00
G01 X52.6236 Y-21.0603 F160.00
G01 X52.8149 Y-21.0627 F160.00
G01 X53.0032 Y-21.0962 F160.00
G01 X53.1836 Y-21.1601 F160.00
G01 X53.3511 Y-21.2526 F160.00
G01 X53.5012 Y-21.3712 F160.00
G01 X53.5445 Y-21.4187 F160.00
G01 X53.5576 Y-21.4317 F160.00
G01 X53.5681 Y-21.4407 F160.00
G01 X53.6046 Y-21.4693 F160.00
G01 X53.6208 Y-21.4802 F160.00
G01 X53.6337 Y-21.4873 F160.00
G01 X53.6470 Y-21.4934 F160.00
G01 X53.6607 Y-21.4985 F160.00
G01 X53.6748 Y-21.5025 F160.00
G01 X53.7585 Y-21.5207 F160.00
G01 X53.7729 Y-21.5226 F160.00
G01 X53.7922 Y-21.5234 F160.00
G01 X53.8115 Y-21.5223 F160.00
G01 X53.8259 Y-21.5202 F160.00
G01 X53.8401 Y-21.5170 F160.00
G01 X53.8586 Y-21.5112 F160.00
G01 X53.9251 Y-21.4865 F160.00
G01 X53.9385 Y-21.4809 F160.00
G01 X53.9472 Y-21.4767 F160.00
G01 X53.9599 Y-21.4695 F160.00
G01 X53.9719 Y-21.4614 F160.00
G01 X53.9833 Y-21.4524 F160.00
G01 X53.9975 Y-21.4392 F160.00
G01 X54.0102 Y-21.4246 F160.00
G01 X54.0558 Y-21.3640 F160.00
G01 X54.0663 Y-21.3487 F160.00
G01 X54.0752 Y-21.3324 F160.00
G01 X54.0808 Y-21.3197 F160.00
G01 X54.1172 Y-21.2229 F160.00
G01 X54.1710 Y-21.1510 F160.00
G01 X54.2429 Y-21.0972 F160.00
G01 X54.3301 Y-21.0645 F160.00
G01 X54.3574 Y-21.0615 F160.00
G01 X56.1326 Y-21.0615 F160.00
G01 X56.1599 Y-21.0645 F160.00
G01 X56.2471 Y-21.0972 F160.00
G01 X56.3190 Y-21.1510 F160.00
G01 X56.3728 Y-21.2229 F160.00
G01 X56.4055 Y-21.3101 F160.00
G01 X56.4085 Y-21.3374 F160.00
G01 X56.4085 Y-23.1126 F160.00
G01 X56.4055 Y-23.1399 F160.00
G01 X56.3728 Y-23.2271 F160.00
G01 X56.3190 Y-23.2990 F160.00
G01 X56.2471 Y-23.3528 F160.00
G01 X56.1497 Y-23.3896 F160.00
G01 X56.1372 Y-23.3955 F160.00
G01 X56.1064 Y-23.4115 F160.00
G01 X56.0897 Y-23.4218 F160.00
G01 X56.0778 Y-23.4306 F160.00
G01 X56.0703 Y-23.4370 F160.00
G01 X56.0563 Y-23.4509 F160.00
G01 X55.9987 Y-23.5207 F160.00
G01 X55.9880 Y-23.5368 F160.00
G01 X55.9788 Y-23.5538 F160.00
G01 X55.9714 Y-23.5717 F160.00
G01 X55.9659 Y-23.5903 F160.00
G01 X55.9621 Y-23.6093 F160.00
G01 X55.9531 Y-23.6846 F160.00
G01 X55.9518 Y-23.7039 F160.00
G01 X55.9520 Y-23.7184 F160.00
G01 X55.9534 Y-23.7329 F160.00
G01 X55.9558 Y-23.7472 F160.00
G01 X55.9607 Y-23.7660 F160.00
G01 X55.9655 Y-23.7796 F160.00
G01 X55.9714 Y-23.7929 F160.00
G01 X56.0024 Y-23.8568 F160.00
G01 X56.0113 Y-23.8731 F160.00
G01 X56.0217 Y-23.8884 F160.00
G01 X56.0305 Y-23.8993 F160.00
G01 X56.1700 Y-24.0527 F160.00
G01 X56.2739 Y-24.2133 F160.00
G01 X56.3502 Y-24.3888 F160.00
G01 X56.3968 Y-24.5743 F160.00
G01 X56.4130 Y-24.7706 F160.00
G01 X56.4118 Y-24.8164 F160.00
G01 X56.3861 Y-25.0117 F160.00
G01 X56.3305 Y-25.1948 F160.00
G01 X56.2457 Y-25.3663 F160.00
G01 X56.1341 Y-25.5217 F160.00
G01 X55.9986 Y-25.6567 F160.00
G01 X55.8428 Y-25.7678 F160.00
G01 X55.6710 Y-25.8520 F160.00
G01 X55.4877 Y-25.9070 F160.00
G01 X55.2980 Y-25.9313 F160.00
G01 X55.1068 Y-25.9243 F160.00
G01 X55.0159 Y-25.9058 F160.00
G01 X54.9193 Y-25.8861 F160.00
G01 X54.7405 Y-25.8179 F160.00
G01 X54.5754 Y-25.7214 F160.00
G01 X54.4281 Y-25.5991 F160.00
G01 X54.3029 Y-25.4545 F160.00
G01 X54.2511 Y-25.3701 F160.00
G01 X54.2406 Y-25.3546 F160.00
G01 X54.2317 Y-25.3436 F160.00
G01 X54.2007 Y-25.3083 F160.00
G01 X54.1909 Y-25.2984 F160.00
G01 X54.1804 Y-25.2891 F160.00
G01 X54.1654 Y-25.2780 F160.00
G01 X54.1535 Y-25.2707 F160.00
G01 X54.1453 Y-25.2663 F160.00
G01 X54.1326 Y-25.2604 F160.00
G01 X54.0627 Y-25.2310 F160.00
G01 X54.0443 Y-25.2249 F160.00
G01 X54.0302 Y-25.2215 F160.00
G01 X54.0111 Y-25.2186 F160.00
G01 X53.9917 Y-25.2176 F160.00
G01 X53.9772 Y-25.2182 F160.00
G01 X53.9628 Y-25.2198 F160.00
G01 X53.8880 Y-25.2328 F160.00
G01 X53.8692 Y-25.2371 F160.00
G01 X53.8508 Y-25.2432 F160.00
G01 X53.8331 Y-25.2511 F160.00
G01 X53.8163 Y-25.2607 F160.00
G01 X53.8006 Y-25.2720 F160.00
G01 X53.7413 Y-25.3237 F160.00
G01 X53.7308 Y-25.3342 F160.00
G01 X53.7242 Y-25.3416 F160.00
G01 X53.7151 Y-25.3533 F160.00
G01 X53.5941 Y-25.5217 F160.00
G01 X53.4586 Y-25.6567 F160.00
G01 X53.3028 Y-25.7678 F160.00
G01 X53.1310 Y-25.8520 F160.00
G01 X52.9477 Y-25.9070 F160.00
G01 X52.7580 Y-25.9313 F160.00
G01 X52.5668 Y-25.9243 F160.00
G01 X52.4759 Y-25.9058 F160.00
G01 X52.3793 Y-25.8861 F160.00
G01 X52.2005 Y-25.8179 F160.00
G01 X52.0354 Y-25.7214 F160.00
G01 X51.8881 Y-25.5991 F160.00
G01 X51.7629 Y-25.4545 F160.00
G01 X51.7111 Y-25.3701 F160.00
G01 X51.7006 Y-25.3546 F160.00
G01 X51.6917 Y-25.3436 F160.00
G01 X51.6607 Y-25.3083 F160.00
G01 X51.6509 Y-25.2984 F160.00
G01 X51.6404 Y-25.2891 F160.00
G01 X51.6292 Y-25.2807 F160.00
G01 X51.6215 Y-25.2755 F160.00
G01 X51.6053 Y-25.2663 F160.00
G01 X51.5926 Y-25.2604 F160.00
G01 X51.5227 Y-25.2310 F160.00
G01 X51.5043 Y-25.2249 F160.00
G01 X51.4854 Y-25.2206 F160.00
G01 X51.4662 Y-25.2182 F160.00
G01 X51.4517 Y-25.2176 F160.00
G01 X51.4372 Y-25.2182 F160.00
G01 X51.4228 Y-25.2198 F160.00
G01 X51.3480 Y-25.2328 F160.00
G01 X51.3292 Y-25.2371 F160.00
G01 X51.3108 Y-25.2432 F160.00
G01 X51.2931 Y-25.2511 F160.00
G01 X51.2763 Y-25.2607 F160.00
G01 X51.2606 Y-25.2720 F160.00
G01 X51.2013 Y-25.3237 F160.00
G01 X51.1908 Y-25.3342 F160.00
G01 X51.1842 Y-25.3416 F160.00
G01 X51.1751 Y-25.3533 F160.00
G01 X51.0541 Y-25.5217 F160.00
G01 X50.9186 Y-25.6567 F160.00
G01 X50.7628 Y-25.7678 F160.00
G01 X50.5910 Y-25.8520 F160.00
G01 X50.4077 Y-25.9070 F160.00
G01 X50.2180 Y-25.9313 F160.00
G01 X50.0268 Y-25.9243 F160.00
G01 X49.9359 Y-25.9058 F160.00
G01 X49.8393 Y-25.8861 F160.00
G01 X49.6605 Y-25.8179 F160.00
G01 X49.4954 Y-25.7214 F160.00
G01 X49.3481 Y-25.5991 F160.00
G01 X49.2229 Y-25.4545 F160.00
G01 X49.1711 Y-25.3701 F160.00
G01 X49.1606 Y-25.3546 F160.00
G01 X49.1517 Y-25.3436 F160.00
G01 X49.1207 Y-25.3083 F160.00
G01 X49.1109 Y-25.2984 F160.00
G01 X49.1004 Y-25.2891 F160.00
G01 X49.0892 Y-25.2807 F160.00
G01 X49.0815 Y-25.2755 F160.00
G01 X49.0653 Y-25.2663 F160.00
G01 X49.0526 Y-25.2604 F160.00
G01 X48.9827 Y-25.2310 F160.00
G01 X48.9643 Y-25.2249 F160.00
G01 X48.9454 Y-25.2206 F160.00
G01 X48.9262 Y-25.2182 F160.00
G01 X48.9117 Y-25.2176 F160.00
G01 X48.8972 Y-25.2182 F160.00
G01 X48.8828 Y-25.2198 F160.00
G01 X48.8080 Y-25.2328 F160.00
G01 X48.7892 Y-25.2371 F160.00
G01 X48.7708 Y-25.2432 F160.00
G01 X48.7531 Y-25.2511 F160.00
G01 X48.7363 Y-25.2607 F160.00
G01 X48.7206 Y-25.2720 F160.00
G01 X48.6613 Y-25.3237 F160.00
G01 X48.6508 Y-25.3342 F160.00
G01 X48.6442 Y-25.3416 F160.00
G01 X48.6351 Y-25.3533 F160.00
G01 X48.5141 Y-25.5217 F160.00
G01 X48.3786 Y-25.6567 F160.00
G01 X48.2228 Y-25.7678 F160.00
G01 X48.0510 Y-25.8520 F160.00
G01 X47.8677 Y-25.9070 F160.00
G01 X47.6780 Y-25.9313 F160.00
G01 X47.4868 Y-25.9243 F160.00
G01 X47.3959 Y-25.9058 F160.00
G01 X47.2993 Y-25.8861 F160.00
G01 X47.1205 Y-25.8179 F160.00
G01 X46.9554 Y-25.7214 F160.00
G01 X46.8081 Y-25.5991 F160.00
G01 X46.6829 Y-25.4545 F160.00
G01 X46.6311 Y-25.3701 F160.00
G01 X46.6206 Y-25.3546 F160.00
G01 X46.6117 Y-25.3436 F160.00
G01 X46.5807 Y-25.3083 F160.00
G01 X46.5709 Y-25.2984 F160.00
G01 X46.5604 Y-25.2891 F160.00
G01 X46.5454 Y-25.2780 F160.00
G01 X46.5375 Y-25.2730 F160.00
G01 X46.5253 Y-25.2663 F160.00
G01 X46.5126 Y-25.2604 F160.00
G01 X46.4427 Y-25.2310 F160.00
G01 X46.4243 Y-25.2249 F160.00
G01 X46.4102 Y-25.2215 F160.00
G01 X46.3911 Y-25.2186 F160.00
G01 X46.3717 Y-25.2176 F160.00
G01 X46.3572 Y-25.2182 F160.00
G01 X46.3428 Y-25.2198 F160.00
G01 X46.2680 Y-25.2328 F160.00
G01 X46.2492 Y-25.2371 F160.00
G01 X46.2308 Y-25.2432 F160.00
G01 X46.2131 Y-25.2511 F160.00
G01 X46.1963 Y-25.2607 F160.00
G01 X46.1806 Y-25.2720 F160.00
G01 X46.1213 Y-25.3237 F160.00
G01 X46.1142 Y-25.3306 F160.00
G01 X46.1042 Y-25.3416 F160.00
G01 X46.0951 Y-25.3533 F160.00
G01 X45.9741 Y-25.5217 F160.00
G01 X45.8386 Y-25.6567 F160.00
G01 X45.6828 Y-25.7678 F160.00
G01 X45.5110 Y-25.8520 F160.00
G01 X45.3277 Y-25.9070 F160.00
G01 X45.1380 Y-25.9313 F160.00
G01 X44.9468 Y-25.9243 F160.00
G01 X44.8559 Y-25.9058 F160.00
G01 X44.7593 Y-25.8861 F160.00
G01 X44.5805 Y-25.8179 F160.00
G01 X44.4154 Y-25.7214 F160.00
G01 X44.2681 Y-25.5991 F160.00
G01 X44.1429 Y-25.4545 F160.00
G01 X44.0911 Y-25.3701 F160.00
G01 X44.0806 Y-25.3546 F160.00
G01 X44.0717 Y-25.3436 F160.00
G01 X44.0407 Y-25.3083 F160.00
G01 X44.0309 Y-25.2984 F160.00
G01 X44.0204 Y-25.2891 F160.00
G01 X44.0054 Y-25.2780 F160.00
G01 X43.9975 Y-25.2730 F160.00
G01 X43.9853 Y-25.2663 F160.00
G01 X43.9726 Y-25.2604 F160.00
G01 X43.9027 Y-25.2310 F160.00
G01 X43.8843 Y-25.2249 F160.00
G01 X43.8702 Y-25.2215 F160.00
G01 X43.8511 Y-25.2186 F160.00
G01 X43.8317 Y-25.2176 F160.00
G01 X43.8172 Y-25.2182 F160.00
G01 X43.8028 Y-25.2198 F160.00
G01 X43.7280 Y-25.2328 F160.00
G01 X43.7092 Y-25.2371 F160.00
G01 X43.6908 Y-25.2432 F160.00
G01 X43.6731 Y-25.2511 F160.00
G01 X43.6563 Y-25.2607 F160.00
G01 X43.6406 Y-25.2720 F160.00
G01 X43.5813 Y-25.3237 F160.00
G01 X43.5742 Y-25.3306 F160.00
G01 X43.5642 Y-25.3416 F160.00
G01 X43.5551 Y-25.3533 F160.00
G01 X43.4341 Y-25.5217 F160.00
G01 X43.2986 Y-25.6567 F160.00
G01 X43.1428 Y-25.7678 F160.00
G01 X42.9710 Y-25.8520 F160.00
G01 X42.7877 Y-25.9070 F160.00
G01 X42.5980 Y-25.9313 F160.00
G01 X42.4068 Y-25.9243 F160.00
G01 X42.3159 Y-25.9058 F160.00
G01 X42.2193 Y-25.8861 F160.00
G01 X42.0405 Y-25.8179 F160.00
G01 X41.8754 Y-25.7214 F160.00
G01 X41.7281 Y-25.5991 F160.00
G01 X41.6029 Y-25.4545 F160.00
G01 X41.5511 Y-25.3701 F160.00
G01 X41.5406 Y-25.3546 F160.00
G01 X41.5317 Y-25.3436 F160.00
G01 X41.5007 Y-25.3083 F160.00
G01 X41.4909 Y-25.2984 F160.00
G01 X41.4804 Y-25.2891 F160.00
G01 X41.4654 Y-25.2780 F160.00
G01 X41.4575 Y-25.2730 F160.00
G01 X41.4453 Y-25.2663 F160.00
G01 X41.4326 Y-25.2604 F160.00
G01 X41.3627 Y-25.2310 F160.00
G01 X41.3443 Y-25.2249 F160.00
G01 X41.3302 Y-25.2215 F160.00
G01 X41.3111 Y-25.2186 F160.00
G01 X41.2917 Y-25.2176 F160.00
G01 X41.2772 Y-25.2182 F160.00
G01 X41.2628 Y-25.2198 F160.00
G01 X41.1880 Y-25.2328 F160.00
G01 X41.1692 Y-25.2371 F160.00
G01 X41.1508 Y-25.2432 F160.00
G01 X41.1331 Y-25.2511 F160.00
G01 X41.1163 Y-25.2607 F160.00
G01 X41.1006 Y-25.2720 F160.00
G01 X41.0413 Y-25.3237 F160.00
G01 X41.0308 Y-25.3342 F160.00
G01 X41.0242 Y-25.3416 F160.00
G01 X41.0151 Y-25.3533 F160.00
G01 X40.8941 Y-25.5217 F160.00
G01 X40.7586 Y-25.6567 F160.00
G01 X40.6028 Y-25.7678 F160.00
G01 X40.4310 Y-25.8520 F160.00
G01 X40.2477 Y-25.9070 F160.00
G01 X40.0580 Y-25.9313 F160.00
G01 X39.8668 Y-25.9243 F160.00
G01 X39.7759 Y-25.9058 F160.00
G01 X39.6793 Y-25.8861 F160.00
G01 X39.5005 Y-25.8179 F160.00
G01 X39.3354 Y-25.7214 F160.00
G01 X39.1881 Y-25.5991 F160.00
G01 X39.0629 Y-25.4545 F160.00
G01 X39.0111 Y-25.3701 F160.00
G01 X39.0006 Y-25.3546 F160.00
G01 X38.9917 Y-25.3436 F160.00
G01 X38.9607 Y-25.3083 F160.00
G01 X38.9509 Y-25.2984 F160.00
G01 X38.9404 Y-25.2891 F160.00
G01 X38.9254 Y-25.2780 F160.00
G01 X38.9135 Y-25.2707 F160.00
G01 X38.9053 Y-25.2663 F160.00
G01 X38.8926 Y-25.2604 F160.00
G01 X38.8227 Y-25.2310 F160.00
G01 X38.8043 Y-25.2249 F160.00
G01 X38.7902 Y-25.2215 F160.00
G01 X38.7711 Y-25.2186 F160.00
G01 X38.7517 Y-25.2176 F160.00
G01 X38.7372 Y-25.2182 F160.00
G01 X38.7228 Y-25.2198 F160.00
G01 X38.6480 Y-25.2328 F160.00
G01 X38.6292 Y-25.2371 F160.00
G01 X38.6108 Y-25.2432 F160.00
G01 X38.5931 Y-25.2511 F160.00
G01 X38.5763 Y-25.2607 F160.00
G01 X38.5606 Y-25.2720 F160.00
G01 X38.5013 Y-25.3237 F160.00
G01 X38.4908 Y-25.3342 F160.00
G01 X38.4842 Y-25.3416 F160.00
G01 X38.4751 Y-25.3533 F160.00
G01 X38.3541 Y-25.5217 F160.00
G01 X38.2186 Y-25.6567 F160.00
G01 X38.0628 Y-25.7678 F160.00
G01 X37.8910 Y-25.8520 F160.00
G01 X37.7077 Y-25.9070 F160.00
G01 X37.5180 Y-25.9313 F160.00
G01 X37.3268 Y-25.9243 F160.00
G01 X37.2359 Y-25.9058 F160.00
G01 X37.1393 Y-25.8861 F160.00
G01 X36.9605 Y-25.8179 F160.00
G01 X36.7954 Y-25.7214 F160.00
G01 X36.6481 Y-25.5991 F160.00
G01 X36.5229 Y-25.4545 F160.00
G01 X36.4711 Y-25.3701 F160.00
G01 X36.4606 Y-25.3546 F160.00
G01 X36.4517 Y-25.3436 F160.00
G01 X36.4207 Y-25.3083 F160.00
G01 X36.4109 Y-25.2984 F160.00
G01 X36.4004 Y-25.2891 F160.00
G01 X36.3854 Y-25.2780 F160.00
G01 X36.3735 Y-25.2707 F160.00
G01 X36.3653 Y-25.2663 F160.00
G01 X36.3526 Y-25.2604 F160.00
G01 X36.2827 Y-25.2310 F160.00
G01 X36.2643 Y-25.2249 F160.00
G01 X36.2502 Y-25.2215 F160.00
G01 X36.2311 Y-25.2186 F160.00
G01 X36.2117 Y-25.2176 F160.00
G01 X36.1972 Y-25.2182 F160.00
G01 X36.1828 Y-25.2198 F160.00
G01 X36.1080 Y-25.2328 F160.00
G01 X36.0892 Y-25.2371 F160.00
G01 X36.0708 Y-25.2432 F160.00
G01 X36.0531 Y-25.2511 F160.00
G01 X36.0363 Y-25.2607 F160.00
G01 X36.0206 Y-25.2720 F160.00
G01 X35.9613 Y-25.3237 F160.00
G01 X35.9508 Y-25.3342 F160.00
G01 X35.9442 Y-25.3416 F160.00
G01 X35.9351 Y-25.3533 F160.00
G01 X35.8141 Y-25.5217 F160.00
G01 X35.6786 Y-25.6567 F160.00
G01 X35.5228 Y-25.7678 F160.00
G01 X35.3510 Y-25.8520 F160.00
G01 X35.1677 Y-25.9070 F160.00
G01 X34.9780 Y-25.9313 F160.00
G01 X34.7868 Y-25.9243 F160.00
G01 X34.6959 Y-25.9058 F160.00
G01 X34.5993 Y-25.8861 F160.00
G01 X34.4205 Y-25.8179 F160.00
G01 X34.2554 Y-25.7214 F160.00
G01 X34.1081 Y-25.5991 F160.00
G01 X33.9829 Y-25.4545 F160.00
G01 X33.9311 Y-25.3701 F160.00
G01 X33.9206 Y-25.3546 F160.00
G01 X33.9117 Y-25.3436 F160.00
G01 X33.8807 Y-25.3083 F160.00
G01 X33.8709 Y-25.2984 F160.00
G01 X33.8604 Y-25.2891 F160.00
G01 X33.8454 Y-25.2780 F160.00
G01 X33.8335 Y-25.2707 F160.00
G01 X33.8253 Y-25.2663 F160.00
G01 X33.8126 Y-25.2604 F160.00
G01 X33.7427 Y-25.2310 F160.00
G01 X33.7243 Y-25.2249 F160.00
G01 X33.7102 Y-25.2215 F160.00
G01 X33.6911 Y-25.2186 F160.00
G01 X33.6717 Y-25.2176 F160.00
G01 X33.6572 Y-25.2182 F160.00
G01 X33.6428 Y-25.2198 F160.00
G01 X33.5680 Y-25.2328 F160.00
G01 X33.5492 Y-25.2371 F160.00
G01 X33.5308 Y-25.2432 F160.00
G01 X33.5131 Y-25.2511 F160.00
G01 X33.4963 Y-25.2607 F160.00
G01 X33.4806 Y-25.2720 F160.00
G01 X33.4213 Y-25.3237 F160.00
G01 X33.4108 Y-25.3342 F160.00
G01 X33.4042 Y-25.3416 F160.00
G01 X33.3951 Y-25.3533 F160.00
G01 X33.2741 Y-25.5217 F160.00
G01 X33.1386 Y-25.6567 F160.00
G01 X32.9828 Y-25.7678 F160.00
G01 X32.8110 Y-25.8520 F160.00
G01 X32.6277 Y-25.9070 F160.00
G01 X32.4380 Y-25.9313 F160.00
G01 X32.2468 Y-25.9243 F160.00
G01 X32.1559 Y-25.9058 F160.00
G01 X32.0593 Y-25.8861 F160.00
G01 X31.8805 Y-25.8179 F160.00
G01 X31.7154 Y-25.7214 F160.00
G01 X31.5681 Y-25.5991 F160.00
G01 X31.4429 Y-25.4545 F160.00
G01 X31.3911 Y-25.3701 F160.00
G01 X31.3806 Y-25.3546 F160.00
G01 X31.3717 Y-25.3436 F160.00
G01 X31.3407 Y-25.3083 F160.00
G01 X31.3309 Y-25.2984 F160.00
G01 X31.3204 Y-25.2891 F160.00
G01 X31.3130 Y-25.2834 F160.00
G01 X31.3015 Y-25.2755 F160.00
G01 X31.2853 Y-25.2663 F160.00
G01 X31.2726 Y-25.2604 F160.00
G01 X31.2027 Y-25.2310 F160.00
G01 X31.1890 Y-25.2263 F160.00
G01 X31.1702 Y-25.2215 F160.00
G01 X31.1511 Y-25.2186 F160.00
G01 X31.1317 Y-25.2176 F160.00
G01 X31.1172 Y-25.2182 F160.00
G01 X31.1028 Y-25.2198 F160.00
G01 X31.0280 Y-25.2328 F160.00
G01 X31.0092 Y-25.2371 F160.00
G01 X30.9908 Y-25.2432 F160.00
G01 X30.9731 Y-25.2511 F160.00
G01 X30.9563 Y-25.2607 F160.00
G01 X30.9406 Y-25.2720 F160.00
G01 X30.8813 Y-25.3237 F160.00
G01 X30.8708 Y-25.3342 F160.00
G01 X30.8642 Y-25.3416 F160.00
G01 X30.8551 Y-25.3533 F160.00
G01 X30.7341 Y-25.5217 F160.00
G01 X30.5986 Y-25.6567 F160.00
G01 X30.4428 Y-25.7678 F160.00
G01 X30.2710 Y-25.8520 F160.00
G01 X30.0877 Y-25.9070 F160.00
G01 X29.8980 Y-25.9313 F160.00
G01 X29.7068 Y-25.9243 F160.00
G01 X29.6159 Y-25.9058 F160.00
G01 X29.5193 Y-25.8861 F160.00
G01 X29.3405 Y-25.8179 F160.00
G01 X29.1754 Y-25.7214 F160.00
G01 X29.0281 Y-25.5991 F160.00
G01 X28.9029 Y-25.4545 F160.00
G01 X28.8511 Y-25.3701 F160.00
G01 X28.8406 Y-25.3546 F160.00
G01 X28.8317 Y-25.3436 F160.00
G01 X28.8007 Y-25.3083 F160.00
G01 X28.7909 Y-25.2984 F160.00
G01 X28.7804 Y-25.2891 F160.00
G01 X28.7730 Y-25.2834 F160.00
G01 X28.7615 Y-25.2755 F160.00
G01 X28.7453 Y-25.2663 F160.00
G01 X28.7326 Y-25.2604 F160.00
G01 X28.6627 Y-25.2310 F160.00
G01 X28.6490 Y-25.2263 F160.00
G01 X28.6302 Y-25.2215 F160.00
G01 X28.6111 Y-25.2186 F160.00
G01 X28.5917 Y-25.2176 F160.00
G01 X28.5772 Y-25.2182 F160.00
G01 X28.5628 Y-25.2198 F160.00
G01 X28.4880 Y-25.2328 F160.00
G01 X28.4692 Y-25.2371 F160.00
G01 X28.4508 Y-25.2432 F160.00
G01 X28.4331 Y-25.2511 F160.00
G01 X28.4163 Y-25.2607 F160.00
G01 X28.4006 Y-25.2720 F160.00
G01 X28.3413 Y-25.3237 F160.00
G01 X28.3308 Y-25.3342 F160.00
G01 X28.3242 Y-25.3416 F160.00
G01 X28.3151 Y-25.3533 F160.00
G01 X28.1941 Y-25.5217 F160.00
G01 X28.0586 Y-25.6567 F160.00
G01 X27.9028 Y-25.7678 F160.00
G01 X27.7310 Y-25.8520 F160.00
G01 X27.5477 Y-25.9070 F160.00
G01 X27.3580 Y-25.9313 F160.00
G01 X27.1668 Y-25.9243 F160.00
G01 X27.0759 Y-25.9058 F160.00
G01 X26.9793 Y-25.8861 F160.00
G01 X26.8005 Y-25.8179 F160.00
G01 X26.6354 Y-25.7214 F160.00
G01 X26.4881 Y-25.5991 F160.00
G01 X26.3629 Y-25.4545 F160.00
G01 X26.3111 Y-25.3701 F160.00
G01 X26.3006 Y-25.3546 F160.00
G01 X26.2917 Y-25.3436 F160.00
G01 X26.2607 Y-25.3083 F160.00
G01 X26.2509 Y-25.2984 F160.00
G01 X26.2404 Y-25.2891 F160.00
G01 X26.2254 Y-25.2780 F160.00
G01 X26.2175 Y-25.2730 F160.00
G01 X26.2053 Y-25.2663 F160.00
G01 X26.1926 Y-25.2604 F160.00
G01 X26.1227 Y-25.2310 F160.00
G01 X26.1090 Y-25.2263 F160.00
G01 X26.0902 Y-25.2215 F160.00
G01 X26.0711 Y-25.2186 F160.00
G01 X26.0517 Y-25.2176 F160.00
G01 X26.0372 Y-25.2182 F160.00
G01 X26.0228 Y-25.2198 F160.00
G01 X25.9480 Y-25.2328 F160.00
G01 X25.9292 Y-25.2371 F160.00
G01 X25.9108 Y-25.2432 F160.00
G01 X25.8931 Y-25.2511 F160.00
G01 X25.8763 Y-25.2607 F160.00
G01 X25.8606 Y-25.2720 F160.00
G01 X25.8013 Y-25.3237 F160.00
G01 X25.7908 Y-25.3342 F160.00
G01 X25.7842 Y-25.3416 F160.00
G01 X25.7751 Y-25.3533 F160.00
G01 X25.6541 Y-25.5217 F160.00
G01 X25.5186 Y-25.6567 F160.00
G01 X25.3628 Y-25.7678 F160.00
G01 X25.1910 Y-25.8520 F160.00
G01 X25.0077 Y-25.9070 F160.00
G01 X24.8180 Y-25.9313 F160.00
G01 X24.6268 Y-25.9243 F160.00
G01 X24.5359 Y-25.9058 F160.00
G01 X24.4393 Y-25.8861 F160.00
G01 X24.2605 Y-25.8179 F160.00
G01 X24.0954 Y-25.7214 F160.00
G01 X23.9481 Y-25.5991 F160.00
G01 X23.8229 Y-25.4545 F160.00
G01 X23.7711 Y-25.3701 F160.00
G01 X23.7606 Y-25.3546 F160.00
G01 X23.7517 Y-25.3436 F160.00
G01 X23.7207 Y-25.3083 F160.00
G01 X23.7109 Y-25.2984 F160.00
G01 X23.7004 Y-25.2891 F160.00
G01 X23.6854 Y-25.2780 F160.00
G01 X23.6775 Y-25.2730 F160.00
G01 X23.6653 Y-25.2663 F160.00
G01 X23.6526 Y-25.2604 F160.00
G01 X23.5827 Y-25.2310 F160.00
G01 X23.5690 Y-25.2263 F160.00
G01 X23.5502 Y-25.2215 F160.00
G01 X23.5311 Y-25.2186 F160.00
G01 X23.5117 Y-25.2176 F160.00
G01 X23.4972 Y-25.2182 F160.00
G01 X23.4828 Y-25.2198 F160.00
G01 X23.4080 Y-25.2328 F160.00
G01 X23.3892 Y-25.2371 F160.00
G01 X23.3708 Y-25.2432 F160.00
G01 X23.3531 Y-25.2511 F160.00
G01 X23.3363 Y-25.2607 F160.00
G01 X23.3206 Y-25.2720 F160.00
G01 X23.2613 Y-25.3237 F160.00
G01 X23.2508 Y-25.3342 F160.00
G01 X23.2442 Y-25.3416 F160.00
G01 X23.2351 Y-25.3533 F160.00
G01 X23.1141 Y-25.5217 F160.00
G01 X22.9786 Y-25.6567 F160.00
G01 X22.8228 Y-25.7678 F160.00
G01 X22.6510 Y-25.8520 F160.00
G01 X22.4677 Y-25.9070 F160.00
G01 X22.2780 Y-25.9313 F160.00
G01 X22.0868 Y-25.9243 F160.00
G01 X21.9959 Y-25.9058 F160.00
G01 X21.8993 Y-25.8861 F160.00
G01 X21.7205 Y-25.8179 F160.00
G01 X21.5554 Y-25.7214 F160.00
G01 X21.4081 Y-25.5991 F160.00
G01 X21.2829 Y-25.4545 F160.00
G01 X21.2311 Y-25.3701 F160.00
G01 X21.2206 Y-25.3546 F160.00
G01 X21.2117 Y-25.3436 F160.00
G01 X21.1807 Y-25.3083 F160.00
G01 X21.1709 Y-25.2984 F160.00
G01 X21.1604 Y-25.2891 F160.00
G01 X21.1492 Y-25.2807 F160.00
G01 X21.1415 Y-25.2755 F160.00
G01 X21.1253 Y-25.2663 F160.00
G01 X21.1126 Y-25.2604 F160.00
G01 X21.0427 Y-25.2310 F160.00
G01 X21.0290 Y-25.2263 F160.00
G01 X21.0102 Y-25.2215 F160.00
G01 X20.9911 Y-25.2186 F160.00
G01 X20.9717 Y-25.2176 F160.00
G01 X20.9572 Y-25.2182 F160.00
G01 X20.9428 Y-25.2198 F160.00
G01 X20.8680 Y-25.2328 F160.00
G01 X20.8492 Y-25.2371 F160.00
G01 X20.8308 Y-25.2432 F160.00
G01 X20.8131 Y-25.2511 F160.00
G01 X20.7963 Y-25.2607 F160.00
G01 X20.7806 Y-25.2720 F160.00
G01 X20.7213 Y-25.3237 F160.00
G01 X20.7108 Y-25.3342 F160.00
G01 X20.7042 Y-25.3416 F160.00
G01 X20.6951 Y-25.3533 F160.00
G01 X20.5741 Y-25.5217 F160.00
G01 X20.4386 Y-25.6567 F160.00
G01 X20.2828 Y-25.7678 F160.00
G01 X20.1110 Y-25.8520 F160.00
G01 X19.9277 Y-25.9070 F160.00
G01 X19.7380 Y-25.9313 F160.00
G01 X19.5468 Y-25.9243 F160.00
G01 X19.4559 Y-25.9058 F160.00
G01 X19.3593 Y-25.8861 F160.00
G01 X19.1805 Y-25.8179 F160.00
G01 X19.0154 Y-25.7214 F160.00
G01 X18.8681 Y-25.5991 F160.00
G01 X18.7429 Y-25.4545 F160.00
G01 X18.6911 Y-25.3701 F160.00
G01 X18.6806 Y-25.3546 F160.00
G01 X18.6717 Y-25.3436 F160.00
G01 X18.6407 Y-25.3083 F160.00
G01 X18.6309 Y-25.2984 F160.00
G01 X18.6204 Y-25.2891 F160.00
G01 X18.6130 Y-25.2834 F160.00
G01 X18.6015 Y-25.2755 F160.00
G01 X18.5853 Y-25.2663 F160.00
G01 X18.5726 Y-25.2604 F160.00
G01 X18.5027 Y-25.2310 F160.00
G01 X18.4890 Y-25.2263 F160.00
G01 X18.4702 Y-25.2215 F160.00
G01 X18.4511 Y-25.2186 F160.00
G01 X18.4317 Y-25.2176 F160.00
G01 X18.4172 Y-25.2182 F160.00
G01 X18.4028 Y-25.2198 F160.00
G01 X18.3280 Y-25.2328 F160.00
G01 X18.3092 Y-25.2371 F160.00
G01 X18.2908 Y-25.2432 F160.00
G01 X18.2731 Y-25.2511 F160.00
G01 X18.2563 Y-25.2607 F160.00
G01 X18.2406 Y-25.2720 F160.00
G01 X18.1813 Y-25.3237 F160.00
G01 X18.1708 Y-25.3342 F160.00
G01 X18.1642 Y-25.3416 F160.00
G01 X18.1551 Y-25.3533 F160.00
G01 X18.0341 Y-25.5217 F160.00
G01 X17.8986 Y-25.6567 F160.00
G01 X17.7428 Y-25.7678 F160.00
G01 X17.5710 Y-25.8520 F160.00
G01 X17.3877 Y-25.9070 F160.00
G01 X17.1980 Y-25.9313 F160.00
G01 X17.0068 Y-25.9243 F160.00
G01 X16.9159 Y-25.9058 F160.00
G01 X16.8193 Y-25.8861 F160.00
G01 X16.6405 Y-25.8179 F160.00
G01 X16.4754 Y-25.7214 F160.00
G01 X16.3281 Y-25.5991 F160.00
G01 X16.2029 Y-25.4545 F160.00
G01 X16.1511 Y-25.3701 F160.00
G01 X16.1406 Y-25.3546 F160.00
G01 X16.1317 Y-25.3436 F160.00
G01 X16.1007 Y-25.3083 F160.00
G01 X16.0909 Y-25.2984 F160.00
G01 X16.0804 Y-25.2891 F160.00
G01 X16.0654 Y-25.2780 F160.00
G01 X16.0575 Y-25.2730 F160.00
G01 X16.0453 Y-25.2663 F160.00
G01 X16.0326 Y-25.2604 F160.00
G01 X15.9627 Y-25.2310 F160.00
G01 X15.9443 Y-25.2249 F160.00
G01 X15.9254 Y-25.2206 F160.00
G01 X15.9111 Y-25.2186 F160.00
G01 X15.8917 Y-25.2176 F160.00
G01 X15.8772 Y-25.2182 F160.00
G01 X15.8628 Y-25.2198 F160.00
G01 X15.7880 Y-25.2328 F160.00
G01 X15.7692 Y-25.2371 F160.00
G01 X15.7508 Y-25.2432 F160.00
G01 X15.7331 Y-25.2511 F160.00
G01 X15.7163 Y-25.2607 F160.00
G01 X15.7006 Y-25.2720 F160.00
G01 X15.6413 Y-25.3237 F160.00
G01 X15.6308 Y-25.3342 F160.00
G01 X15.6242 Y-25.3416 F160.00
G01 X15.6151 Y-25.3533 F160.00
G01 X15.4941 Y-25.5217 F160.00
G01 X15.3586 Y-25.6567 F160.00
G01 X15.2028 Y-25.7678 F160.00
G01 X15.0310 Y-25.8520 F160.00
G01 X14.8477 Y-25.9070 F160.00
G01 X14.6580 Y-25.9313 F160.00
G01 X14.4668 Y-25.9243 F160.00
G01 X14.3759 Y-25.9058 F160.00
G01 X14.2793 Y-25.8861 F160.00
G01 X14.1005 Y-25.8179 F160.00
G01 X13.9354 Y-25.7214 F160.00
G01 X13.7881 Y-25.5991 F160.00
G01 X13.6629 Y-25.4545 F160.00
G01 X13.6111 Y-25.3701 F160.00
G01 X13.6006 Y-25.3546 F160.00
G01 X13.5917 Y-25.3436 F160.00
G01 X13.5607 Y-25.3083 F160.00
G01 X13.5509 Y-25.2984 F160.00
G01 X13.5404 Y-25.2891 F160.00
G01 X13.5254 Y-25.2780 F160.00
G01 X13.5135 Y-25.2707 F160.00
G01 X13.5053 Y-25.2663 F160.00
G01 X13.4926 Y-25.2604 F160.00
G01 X13.4227 Y-25.2310 F160.00
G01 X13.4043 Y-25.2249 F160.00
G01 X13.3902 Y-25.2215 F160.00
G01 X13.3759 Y-25.2191 F160.00
G01 X13.3566 Y-25.2177 F160.00
G01 X13.3420 Y-25.2179 F160.00
G01 X13.3228 Y-25.2198 F160.00
G01 X13.2480 Y-25.2328 F160.00
G01 X13.2292 Y-25.2371 F160.00
G01 X13.2108 Y-25.2432 F160.00
G01 X13.1931 Y-25.2511 F160.00
G01 X13.1763 Y-25.2607 F160.00
G01 X13.1606 Y-25.2720 F160.00
G01 X13.1013 Y-25.3237 F160.00
G01 X13.0942 Y-25.3306 F160.00
G01 X13.0842 Y-25.3416 F160.00
G01 X13.0751 Y-25.3533 F160.00
G01 X12.9541 Y-25.5217 F160.00
G01 X12.8186 Y-25.6567 F160.00
G01 X12.6628 Y-25.7678 F160.00
G01 X12.4910 Y-25.8520 F160.00
G01 X12.3077 Y-25.9070 F160.00
G01 X12.1180 Y-25.9313 F160.00
G01 X11.9268 Y-25.9243 F160.00
G01 X11.8359 Y-25.9058 F160.00
G01 X11.7393 Y-25.8861 F160.00
G01 X11.5605 Y-25.8179 F160.00
G01 X11.3954 Y-25.7214 F160.00
G01 X11.2481 Y-25.5991 F160.00
G01 X11.1229 Y-25.4545 F160.00
G01 X11.0711 Y-25.3701 F160.00
G01 X11.0606 Y-25.3546 F160.00
G01 X11.0517 Y-25.3436 F160.00
G01 X11.0207 Y-25.3083 F160.00
G01 X11.0109 Y-25.2984 F160.00
G01 X11.0004 Y-25.2891 F160.00
G01 X10.9854 Y-25.2780 F160.00
G01 X10.9735 Y-25.2707 F160.00
G01 X10.9653 Y-25.2663 F160.00
G01 X10.9526 Y-25.2604 F160.00
G01 X10.8827 Y-25.2310 F160.00
G01 X10.8643 Y-25.2249 F160.00
G01 X10.8502 Y-25.2215 F160.00
G01 X10.8359 Y-25.2191 F160.00
G01 X10.8166 Y-25.2177 F160.00
G01 X10.8020 Y-25.2179 F160.00
G01 X10.7828 Y-25.2198 F160.00
G01 X10.7080 Y-25.2328 F160.00
G01 X10.6892 Y-25.2371 F160.00
G01 X10.6708 Y-25.2432 F160.00
G01 X10.6531 Y-25.2511 F160.00
G01 X10.6363 Y-25.2607 F160.00
G01 X10.6206 Y-25.2720 F160.00
G01 X10.5613 Y-25.3237 F160.00
G01 X10.5542 Y-25.3306 F160.00
G01 X10.5442 Y-25.3416 F160.00
G01 X10.5351 Y-25.3533 F160.00
G01 X10.4141 Y-25.5217 F160.00
G01 X10.2786 Y-25.6567 F160.00
G01 X10.1228 Y-25.7678 F160.00
G01 X9.9510 Y-25.8520 F160.00
G01 X9.7677 Y-25.9070 F160.00
G01 X9.5780 Y-25.9313 F160.00
G01 X9.3868 Y-25.9243 F160.00
G01 X9.1993 Y-25.8861 F160.00
G01 X9.0205 Y-25.8179 F160.00
G01 X8.8554 Y-25.7214 F160.00
G01 X8.7081 Y-25.5991 F160.00
G01 X8.5829 Y-25.4545 F160.00
G01 X8.5311 Y-25.3701 F160.00
G01 X8.5206 Y-25.3546 F160.00
G01 X8.5117 Y-25.3436 F160.00
G01 X8.4807 Y-25.3083 F160.00
G01 X8.4709 Y-25.2984 F160.00
G01 X8.4604 Y-25.2891 F160.00
G01 X8.4454 Y-25.2780 F160.00
G01 X8.4335 Y-25.2707 F160.00
G01 X8.4253 Y-25.2663 F160.00
G01 X8.4126 Y-25.2604 F160.00
G01 X8.3427 Y-25.2310 F160.00
G01 X8.3243 Y-25.2249 F160.00
G01 X8.3102 Y-25.2215 F160.00
G01 X8.2959 Y-25.2191 F160.00
G01 X8.2766 Y-25.2177 F160.00
G01 X8.2620 Y-25.2179 F160.00
G01 X8.2428 Y-25.2198 F160.00
G01 X8.1680 Y-25.2328 F160.00
G01 X8.1538 Y-25.2358 F160.00
G01 X8.1399 Y-25.2399 F160.00
G01 X8.1219 Y-25.2469 F160.00
G01 X8.1046 Y-25.2557 F160.00
G01 X8.0883 Y-25.2662 F160.00
G01 X8.0731 Y-25.2782 F160.00
G01 X8.0250 Y-25.3204 F160.00
G01 X8.0177 Y-25.3271 F160.00
G01 X8.0074 Y-25.3378 F160.00
G01 X8.0011 Y-25.3454 F160.00
G01 X7.9951 Y-25.3533 F160.00
G01 X7.8741 Y-25.5217 F160.00
G01 X7.7386 Y-25.6567 F160.00
G01 X7.5828 Y-25.7678 F160.00
G01 X7.4110 Y-25.8520 F160.00
G01 X7.2277 Y-25.9070 F160.00
G01 X7.0380 Y-25.9313 F160.00
G01 X6.8468 Y-25.9243 F160.00
G01 X6.7559 Y-25.9058 F160.00
G01 X6.6593 Y-25.8861 F160.00
G01 X6.4805 Y-25.8179 F160.00
G01 X6.3154 Y-25.7214 F160.00
G01 X6.1681 Y-25.5991 F160.00
G01 X6.0429 Y-25.4545 F160.00
G01 X5.9429 Y-25.2914 F160.00
G01 X5.8709 Y-25.1141 F160.00
G01 X5.8289 Y-24.9275 F160.00
G01 X5.8179 Y-24.7365 F160.00
G01 X5.8382 Y-24.5462 F160.00
G01 X5.8893 Y-24.3619 F160.00
G01 X5.9699 Y-24.1883 F160.00
G01 X6.0777 Y-24.0303 F160.00
G01 X6.2099 Y-23.8919 F160.00
G01 X6.3630 Y-23.7770 F160.00
G01 X6.3768 Y-23.7689 F160.00
G01 X6.3916 Y-23.7583 F160.00
G01 X6.4429 Y-23.7158 F160.00
G01 X6.4532 Y-23.7056 F160.00
G01 X6.4627 Y-23.6948 F160.00
G01 X6.4715 Y-23.6832 F160.00
G01 X6.4768 Y-23.6751 F160.00
G01 X6.4862 Y-23.6583 F160.00
G01 X6.4922 Y-23.6451 F160.00
G01 X6.5207 Y-23.5748 F160.00
G01 X6.5266 Y-23.5564 F160.00
G01 X6.5298 Y-23.5422 F160.00
G01 X6.5325 Y-23.5230 F160.00
G01 X6.5332 Y-23.5037 F160.00
G01 X6.5325 Y-23.4892 F160.00
G01 X6.5307 Y-23.4748 F160.00
G01 X6.5168 Y-23.4002 F160.00
G01 X6.5123 Y-23.3814 F160.00
G01 X6.5077 Y-23.3676 F160.00
G01 X6.5000 Y-23.3498 F160.00
G01 X6.4906 Y-23.3329 F160.00
G01 X6.4796 Y-23.3170 F160.00
G01 X6.4670 Y-23.3023 F160.00
G01 X6.4183 Y-23.2507 F160.00
G01 X6.4084 Y-23.2409 F160.00
G01 X6.4014 Y-23.2348 F160.00
G01 X6.3904 Y-23.2262 F160.00
G01 X6.3788 Y-23.2185 F160.00
G01 X6.3154 Y-23.1814 F160.00
G01 X6.1681 Y-23.0591 F160.00
G01 X6.0429 Y-22.9145 F160.00
G01 X5.9429 Y-22.7514 F160.00
G01 X5.8709 Y-22.5741 F160.00
G01 X5.8373 Y-22.4247 F160.00
G01 X5.8289 Y-22.3875 F160.00
G01 X5.8179 Y-22.1965 F160.00
G01 X5.8382 Y-22.0062 F160.00
G01 X5.8893 Y-21.8219 F160.00
G01 X5.9699 Y-21.6483 F160.00
G01 X6.0777 Y-21.4903 F160.00
G01 X6.2099 Y-21.3519 F160.00
G01 X6.3629 Y-21.2371 F160.00
G01 X6.5326 Y-21.1487 F160.00
G01 X6.7144 Y-21.0893 F160.00
G01 X6.9036 Y-21.0603 F160.00
G01 X7.0949 Y-21.0627 F160.00
G01 X7.2832 Y-21.0962 F160.00
G01 X7.4636 Y-21.1601 F160.00
G01 X7.6311 Y-21.2526 F160.00
G01 X7.7812 Y-21.3711 F160.00
G01 X7.9100 Y-21.5127 F160.00
G01 X7.9902 Y-21.6362 F160.00
G01 X7.9994 Y-21.6479 F160.00
G01 X8.0264 Y-21.6795 F160.00
G01 X8.0365 Y-21.6895 F160.00
G01 X8.0472 Y-21.6988 F160.00
G01 X8.0626 Y-21.7099 F160.00
G01 X8.0789 Y-21.7195 F160.00
G01 X8.1469 Y-21.7529 F160.00
G01 X8.1602 Y-21.7588 F160.00
G01 X8.1739 Y-21.7637 F160.00
G01 X8.1926 Y-21.7686 F160.00
G01 X8.2117 Y-21.7717 F160.00
G01 X8.2310 Y-21.7728 F160.00
G01 X8.2504 Y-21.7720 F160.00
G01 X8.3257 Y-21.7633 F160.00
G01 X8.3401 Y-21.7611 F160.00
G01 X8.3496 Y-21.7591 F160.00
G01 X8.3681 Y-21.7535 F160.00
G01 X8.3816 Y-21.7482 F160.00
G01 X8.3904 Y-21.7441 F160.00
G01 X8.4073 Y-21.7346 F160.00
G01 X8.4231 Y-21.7235 F160.00
G01 X8.4854 Y-21.6725 F160.00
G01 X8.4956 Y-21.6630 F160.00
G01 X8.5051 Y-21.6529 F160.00
G01 X8.5110 Y-21.6457 F160.00
G01 X8.5193 Y-21.6345 F160.00
G01 X8.6177 Y-21.4903 F160.00
G01 X8.7499 Y-21.3519 F160.00
G01 X8.9029 Y-21.2371 F160.00
G01 X9.0726 Y-21.1487 F160.00
G01 X9.2544 Y-21.0893 F160.00
G01 X9.4436 Y-21.0603 F160.00
G01 X9.6349 Y-21.0627 F160.00
G01 X9.8232 Y-21.0962 F160.00
G01 X10.0036 Y-21.1601 F160.00
G01 X10.1711 Y-21.2526 F160.00
G01 X10.3212 Y-21.3711 F160.00
G01 X10.4500 Y-21.5127 F160.00
G01 X10.5302 Y-21.6362 F160.00
G01 X10.5394 Y-21.6479 F160.00
G01 X10.5664 Y-21.6795 F160.00
G01 X10.5765 Y-21.6895 F160.00
G01 X10.5872 Y-21.6988 F160.00
G01 X10.6026 Y-21.7099 F160.00
G01 X10.6189 Y-21.7195 F160.00
G01 X10.6869 Y-21.7529 F160.00
G01 X10.7002 Y-21.7588 F160.00
G01 X10.7139 Y-21.7637 F160.00
G01 X10.7326 Y-21.7686 F160.00
G01 X10.7517 Y-21.7717 F160.00
G01 X10.7710 Y-21.7728 F160.00
G01 X10.7904 Y-21.7720 F160.00
G01 X10.8657 Y-21.7633 F160.00
G01 X10.8801 Y-21.7611 F160.00
G01 X10.8896 Y-21.7591 F160.00
G01 X10.9081 Y-21.7535 F160.00
G01 X10.9260 Y-21.7462 F160.00
G01 X10.9389 Y-21.7395 F160.00
G01 X10.9473 Y-21.7346 F160.00
G01 X10.9631 Y-21.7235 F160.00
G01 X11.0254 Y-21.6725 F160.00
G01 X11.0356 Y-21.6630 F160.00
G01 X11.0451 Y-21.6529 F160.00
G01 X11.0539 Y-21.6420 F160.00
G01 X11.0593 Y-21.6345 F160.00
G01 X11.1577 Y-21.4903 F160.00
G01 X11.2899 Y-21.3519 F160.00
G01 X11.4429 Y-21.2371 F160.00
G01 X11.6126 Y-21.1487 F160.00
G01 X11.7944 Y-21.0893 F160.00
G01 X11.9836 Y-21.0603 F160.00
G01 X12.1749 Y-21.0627 F160.00
G01 X12.3632 Y-21.0962 F160.00
G01 X12.5436 Y-21.1601 F160.00
G01 X12.7111 Y-21.2526 F160.00
G01 X12.8612 Y-21.3711 F160.00
G01 X12.9900 Y-21.5127 F160.00
G01 X13.0702 Y-21.6362 F160.00
G01 X13.0794 Y-21.6479 F160.00
G01 X13.1064 Y-21.6795 F160.00
G01 X13.1165 Y-21.6895 F160.00
G01 X13.1272 Y-21.6988 F160.00
G01 X13.1426 Y-21.7099 F160.00
G01 X13.1589 Y-21.7195 F160.00
G01 X13.2269 Y-21.7529 F160.00
G01 X13.2402 Y-21.7588 F160.00
G01 X13.2539 Y-21.7637 F160.00
G01 X13.2726 Y-21.7686 F160.00
G01 X13.2917 Y-21.7717 F160.00
G01 X13.3062 Y-21.7727 F160.00
G01 X13.3207 Y-21.7726 F160.00
G01 X13.3352 Y-21.7715 F160.00
G01 X13.4105 Y-21.7627 F160.00
G01 X13.4296 Y-21.7591 F160.00
G01 X13.4481 Y-21.7535 F160.00
G01 X13.4616 Y-21.7482 F160.00
G01 X13.4704 Y-21.7441 F160.00
G01 X13.4873 Y-21.7346 F160.00
G01 X13.5031 Y-21.7235 F160.00
G01 X13.5654 Y-21.6725 F160.00
G01 X13.5756 Y-21.6630 F160.00
G01 X13.5851 Y-21.6529 F160.00
G01 X13.5910 Y-21.6457 F160.00
G01 X13.5993 Y-21.6345 F160.00
G01 X13.6977 Y-21.4903 F160.00
G01 X13.8299 Y-21.3519 F160.00
G01 X13.9829 Y-21.2371 F160.00
G01 X14.1526 Y-21.1487 F160.00
G01 X14.3344 Y-21.0893 F160.00
G01 X14.5236 Y-21.0603 F160.00
G01 X14.7149 Y-21.0627 F160.00
G01 X14.9032 Y-21.0962 F160.00
G01 X15.0836 Y-21.1601 F160.00
G01 X15.2511 Y-21.2526 F160.00
G01 X15.4012 Y-21.3711 F160.00
G01 X15.5300 Y-21.5127 F160.00
G01 X15.6102 Y-21.6362 F160.00
G01 X15.6194 Y-21.6479 F160.00
G01 X15.6464 Y-21.6795 F160.00
G01 X15.6565 Y-21.6895 F160.00
G01 X15.6672 Y-21.6988 F160.00
G01 X15.6826 Y-21.7099 F160.00
G01 X15.6989 Y-21.7195 F160.00
G01 X15.7669 Y-21.7529 F160.00
G01 X15.7802 Y-21.7588 F160.00
G01 X15.7939 Y-21.7637 F160.00
G01 X15.8126 Y-21.7686 F160.00
G01 X15.8317 Y-21.7717 F160.00
G01 X15.8462 Y-21.7727 F160.00
G01 X15.8607 Y-21.7726 F160.00
G01 X15.8704 Y-21.7720 F160.00
G01 X15.9505 Y-21.7627 F160.00
G01 X15.9696 Y-21.7591 F160.00
G01 X15.9835 Y-21.7551 F160.00
G01 X15.9927 Y-21.7519 F160.00
G01 X16.0016 Y-21.7482 F160.00
G01 X16.0147 Y-21.7419 F160.00
G01 X16.0273 Y-21.7346 F160.00
G01 X16.0353 Y-21.7292 F160.00
G01 X16.0469 Y-21.7204 F160.00
G01 X16.1018 Y-21.6754 F160.00
G01 X16.1123 Y-21.6662 F160.00
G01 X16.1188 Y-21.6597 F160.00
G01 X16.1281 Y-21.6493 F160.00
G01 X16.1366 Y-21.6383 F160.00
G01 X16.2377 Y-21.4903 F160.00
G01 X16.3699 Y-21.3519 F160.00
G01 X16.5032 Y-21.2518 F160.00
G01 X16.5148 Y-21.2424 F160.00
G01 X16.5255 Y-21.2322 F160.00
G01 X16.5625 Y-21.1925 F160.00
G01 X16.5716 Y-21.1815 F160.00
G01 X16.5823 Y-21.1658 F160.00
G01 X16.5915 Y-21.1492 F160.00
G01 X16.5955 Y-21.1405 F160.00
G01 X16.6007 Y-21.1272 F160.00
G01 X16.6236 Y-21.0501 F160.00
G01 X16.6270 Y-21.0366 F160.00
G01 X16.6295 Y-21.0229 F160.00
G01 X16.6310 Y-21.0090 F160.00
G01 X16.6315 Y-20.9951 F160.00
G01 X16.6315 Y-10.8196 F160.00
G01 X16.6310 Y-10.8012 F160.00
G01 X16.6287 Y-10.7625 F160.00
G01 X16.6380 Y-10.7114 F160.00
G01 X16.6446 Y-10.6618 F160.00
G01 X16.6495 Y-10.6445 F160.00
G01 X16.6700 Y-10.5989 F160.00
G01 X16.6762 Y-10.5836 F160.00
G01 X16.6825 Y-10.5660 F160.00
G01 X16.6875 Y-10.5477 F160.00
G01 X16.6901 Y-10.5337 F160.00
G01 X16.6913 Y-10.5242 F160.00
G01 X16.6921 Y-10.5100 F160.00
G01 X16.6938 Y-10.4390 F160.00
G01 X16.6934 Y-10.4205 F160.00
G01 X16.6919 Y-10.4066 F160.00
G01 X16.6894 Y-10.3929 F160.00
G01 X16.6792 Y-10.3541 F160.00
G01 X16.6622 Y-10.1600 F160.00
G01 X16.6792 Y-9.9659 F160.00
G01 X16.7297 Y-9.7777 F160.00
G01 X16.8120 Y-9.6011 F160.00
G01 X16.9238 Y-9.4415 F160.00
G01 X17.0488 Y-9.3165 F160.00
G01 X17.0598 Y-9.3049 F160.00
G01 X17.0661 Y-9.2977 F160.00
G01 X17.0750 Y-9.2863 F160.00
G01 X17.0831 Y-9.2743 F160.00
G01 X17.0902 Y-9.2617 F160.00
G01 X17.1277 Y-9.1795 F160.00
G01 X17.1326 Y-9.1658 F160.00
G01 X17.1352 Y-9.1565 F160.00
G01 X17.1375 Y-9.1471 F160.00
G01 X17.1399 Y-9.1328 F160.00
G01 X17.1414 Y-9.1135 F160.00
G01 X17.1413 Y-9.0990 F160.00
G01 X17.1407 Y-9.0893 F160.00
G01 X17.1294 Y-9.0094 F160.00
G01 X17.1257 Y-8.9904 F160.00
G01 X17.1202 Y-8.9719 F160.00
G01 X17.1128 Y-8.9540 F160.00
G01 X17.1037 Y-8.9369 F160.00
G01 X17.0929 Y-8.9208 F160.00
G01 X17.0838 Y-8.9095 F160.00
G01 X17.0341 Y-8.8522 F160.00
G01 X17.0204 Y-8.8385 F160.00
G01 X17.0053 Y-8.8263 F160.00
G01 X16.9892 Y-8.8156 F160.00
G01 X16.9764 Y-8.8087 F160.00
G01 X16.9632 Y-8.8028 F160.00
G01 X16.9495 Y-8.7978 F160.00
G01 X16.8678 Y-8.7740 F160.00
G01 X16.8496 Y-8.7705 F160.00
G01 X16.8311 Y-8.7687 F160.00
G01 X13.0457 Y-8.7685 F160.00
G01 X13.0300 Y-8.7691 F160.00
G01 X12.9885 Y-8.7738 F160.00
G01 X12.9698 Y-8.7777 F160.00
G01 X12.9515 Y-8.7834 F160.00
G01 X12.9426 Y-8.7869 F160.00
G01 X12.9297 Y-8.7930 F160.00
G01 X12.8551 Y-8.8339 F160.00
G01 X12.8435 Y-8.8416 F160.00
G01 X12.8360 Y-8.8471 F160.00
G01 X12.8254 Y-8.8561 F160.00
G01 X12.8187 Y-8.8625 F160.00
G01 X8.6355 Y-13.0457 F160.00
G01 X8.6228 Y-13.0591 F160.00
G01 X8.5971 Y-13.0880 F160.00
G01 X8.5544 Y-13.1176 F160.00
G01 X8.5147 Y-13.1480 F160.00
G01 X8.4989 Y-13.1568 F160.00
G01 X8.4461 Y-13.1770 F160.00
G01 X8.4003 Y-13.1970 F160.00
G01 X8.3829 Y-13.2018 F160.00
G01 X8.3334 Y-13.2079 F160.00
G01 X8.2821 Y-13.2166 F160.00
G01 X8.2479 Y-13.2142 F160.00
G01 X8.2261 Y-13.2135 F160.00
G01 X6.3746 Y-13.2135 F160.00
G01 X6.3562 Y-13.2140 F160.00
G01 X6.3175 Y-13.2163 F160.00
G01 X6.2664 Y-13.2070 F160.00
G01 X6.2169 Y-13.2004 F160.00
G01 X6.2025 Y-13.1964 F160.00
G01 X6.1995 Y-13.1955 F160.00
G01 X6.1478 Y-13.1724 F160.00
G01 X6.1013 Y-13.1542 F160.00
G01 X6.0856 Y-13.1453 F160.00
G01 X6.0462 Y-13.1145 F160.00
