(G-CODE GENERATED BY FLATCAM v8.994 - www.flatcam.org - Version Date: 2020/11/7)

(Name: latency_schematic-PTH.drl_edit_cnc)
(Type: G-code from Geometry)
(Units: MM)

(Created on Friday, 24 February 2023 at 19:49)

(Specially modified by mattwach to work with the Sainsmart 3080 that I have.)


(TOOLS DIAMETER: )
(Tool: 1 -> Dia: 0.8)

(FEEDRATE Z: )
(Tool: 1 -> Feedrate: 300)

(FEEDRATE RAPIDS: )
(Tool: 1 -> Feedrate Rapids: 1500)

(Z_CUT: )
(Tool: 1 -> Z_Cut: -1.7)

(Tools Offset: )
(Tool: 1 -> Offset Z: 0.0)

(Z_MOVE: )
(Tool: 1 -> Z_Move: 2)

(Z Toolchange: 5.0 mm)
(X,Y Toolchange: 0.0000, 0.0000 mm)
(Z Start: None mm)
(Z End: 5.0 mm)
(X,Y End: 0.0000, 0.0000 mm)
(Steps per circle: 64)
(Preprocessor Excellon: default)

(X range:    3.4100 ...   56.2800  mm)
(Y range:  -25.1650 ...   -2.1400  mm)

(Spindle Speed: 10000 RPM)
G21
G90
G17
G94


G01 F300.00

M5             
G00 Z5.0000
G00 X0.0000 Y0.0000                
G00 Z5.0000
        
G01 F300.00
M03 S10000
G00 X7.6200 Y-10.1600
G01 Z-1.7000
G01 Z0
G00 Z2.0000
G00 X55.2450 Y-24.7650
G01 Z-1.7000
G01 Z0
G00 Z2.0000
G00 X55.2450 Y-22.2250
G01 Z-1.7000
G01 Z0
G00 Z2.0000
G00 X52.7050 Y-24.7650
G01 Z-1.7000
G01 Z0
G00 Z2.0000
G00 X52.7050 Y-22.2250
G01 Z-1.7000
G01 Z0
G00 Z2.0000
G00 X50.1650 Y-24.7650
G01 Z-1.7000
G01 Z0
G00 Z2.0000
G00 X50.1650 Y-22.2250
G01 Z-1.7000
G01 Z0
G00 Z2.0000
G00 X47.6250 Y-24.7650
G01 Z-1.7000
G01 Z0
G00 Z2.0000
G00 X47.6250 Y-22.2250
G01 Z-1.7000
G01 Z0
G00 Z2.0000
G00 X45.0850 Y-24.7650
G01 Z-1.7000
G01 Z0
G00 Z2.0000
G00 X45.0850 Y-22.2250
G01 Z-1.7000
G01 Z0
G00 Z2.0000
G00 X42.5450 Y-24.7650
G01 Z-1.7000
G01 Z0
G00 Z2.0000
G00 X42.5450 Y-22.2250
G01 Z-1.7000
G01 Z0
G00 Z2.0000
G00 X40.0050 Y-24.7650
G01 Z-1.7000
G01 Z0
G00 Z2.0000
G00 X40.0050 Y-22.2250
G01 Z-1.7000
G01 Z0
G00 Z2.0000
G00 X37.4650 Y-24.7650
G01 Z-1.7000
G01 Z0
G00 Z2.0000
G00 X37.4650 Y-22.2250
G01 Z-1.7000
G01 Z0
G00 Z2.0000
G00 X34.9250 Y-24.7650
G01 Z-1.7000
G01 Z0
G00 Z2.0000
G00 X34.9250 Y-22.2250
G01 Z-1.7000
G01 Z0
G00 Z2.0000
G00 X32.3850 Y-24.7650
G01 Z-1.7000
G01 Z0
G00 Z2.0000
G00 X32.3850 Y-22.2250
G01 Z-1.7000
G01 Z0
G00 Z2.0000
G00 X29.8450 Y-24.7650
G01 Z-1.7000
G01 Z0
G00 Z2.0000
G00 X29.8450 Y-22.2250
G01 Z-1.7000
G01 Z0
G00 Z2.0000
G00 X27.3050 Y-24.7650
G01 Z-1.7000
G01 Z0
G00 Z2.0000
G00 X27.3050 Y-22.2250
G01 Z-1.7000
G01 Z0
G00 Z2.0000
G00 X24.7650 Y-24.7650
G01 Z-1.7000
G01 Z0
G00 Z2.0000
G00 X24.7650 Y-22.2250
G01 Z-1.7000
G01 Z0
G00 Z2.0000
G00 X22.2250 Y-24.7650
G01 Z-1.7000
G01 Z0
G00 Z2.0000
G00 X22.2250 Y-22.2250
G01 Z-1.7000
G01 Z0
G00 Z2.0000
G00 X19.6850 Y-24.7650
G01 Z-1.7000
G01 Z0
G00 Z2.0000
G00 X19.6850 Y-22.2250
G01 Z-1.7000
G01 Z0
G00 Z2.0000
G00 X17.1450 Y-24.7650
G01 Z-1.7000
G01 Z0
G00 Z2.0000
G00 X17.1450 Y-22.2250
G01 Z-1.7000
G01 Z0
G00 Z2.0000
G00 X14.6050 Y-24.7650
G01 Z-1.7000
G01 Z0
G00 Z2.0000
G00 X14.6050 Y-22.2250
G01 Z-1.7000
G01 Z0
G00 Z2.0000
G00 X12.0650 Y-24.7650
G01 Z-1.7000
G01 Z0
G00 Z2.0000
G00 X12.0650 Y-22.2250
G01 Z-1.7000
G01 Z0
G00 Z2.0000
G00 X9.5250 Y-24.7650
G01 Z-1.7000
G01 Z0
G00 Z2.0000
G00 X9.5250 Y-22.2250
G01 Z-1.7000
G01 Z0
G00 Z2.0000
G00 X6.9850 Y-24.7650
G01 Z-1.7000
G01 Z0
G00 Z2.0000
G00 X6.9850 Y-22.2250
G01 Z-1.7000
G01 Z0
G00 Z2.0000
G00 X3.8350 Y-5.6950
G01 Z-1.7000
G01 Z0
G00 Z2.0000
G00 X3.8350 Y-3.1550
G01 Z-1.7000
G01 Z0
G00 Z2.0000
G00 X3.8100 Y-10.1600
G01 Z-1.7000
G01 Z0
G00 Z2.0000
G00 X55.8800 Y-10.1600
G01 Z-1.7000
G01 Z0
G00 Z2.0000
G00 X53.3400 Y-4.4450
G01 Z-1.7000
G01 Z0
G00 Z2.0000
G00 X50.8000 Y-4.4450
G01 Z-1.7000
G01 Z0
G00 Z2.0000
G00 X48.2600 Y-4.4450
G01 Z-1.7000
G01 Z0
G00 Z2.0000
G00 X45.7200 Y-10.1600
G01 Z-1.7000
G01 Z0
G00 Z2.0000
G00 X43.1800 Y-10.1600
G01 Z-1.7000
G01 Z0
G00 Z2.0000
G00 X43.1800 Y-6.3500
G01 Z-1.7000
G01 Z0
G00 Z2.0000
G00 X43.1800 Y-2.5400
G01 Z-1.7000
G01 Z0
G00 Z2.0000
G00 X33.0200 Y-10.1600
G01 Z-1.7000
G01 Z0
G00 Z2.0000
G00 X33.0200 Y-6.3500
G01 Z-1.7000
G01 Z0
G00 Z2.0000
G00 X33.0200 Y-2.5400
G01 Z-1.7000
G01 Z0
G00 Z2.0000
G00 X30.4800 Y-10.1600
G01 Z-1.7000
G01 Z0
G00 Z2.0000
G00 X30.4800 Y-6.3500
G01 Z-1.7000
G01 Z0
G00 Z2.0000
G00 X30.4800 Y-2.5400
G01 Z-1.7000
G01 Z0
G00 Z2.0000
G00 X20.3200 Y-10.1600
G01 Z-1.7000
G01 Z0
G00 Z2.0000
G00 X20.3200 Y-6.3500
G01 Z-1.7000
G01 Z0
G00 Z2.0000
G00 X20.3200 Y-2.5400
G01 Z-1.7000
G01 Z0
G00 Z2.0000
G00 X17.7800 Y-10.1600
G01 Z-1.7000
G01 Z0
G00 Z2.0000
G00 X15.2400 Y-4.0850
G01 Z-1.7000
G01 Z0
G00 Z2.0000
G00 X12.7000 Y-4.0850
G01 Z-1.7000
G01 Z0
G00 Z2.0000
G00 X10.1600 Y-4.0850
G01 Z-1.7000
G01 Z0
G00 Z2.0000
M05
G00 Z5.00
G00 X0.0 Y0.0


